; generated by Slic3r 1.2.9 on 2017-09-12 at 18:18:19

; external perimeters extrusion width = 0.50mm
; perimeters extrusion width = 0.85mm
; infill extrusion width = 1.02mm
; solid infill extrusion width = 0.85mm
; top infill extrusion width = 0.85mm
; support material extrusion width = 0.50mm

M107
M190 S70 ; set bed temperature
M104 S191 ; set temperature
G28 ; home all axes
G1 Z0 F5000 ; lift nozzle
G92;  switch to relative mode
G1 E+50 F300; retract 70 millimeter
G91; switch back to absolu
M109 S191 ; wait for temperature to be reached
G21 ; set units to millimeters
G90 ; use absolute coordinates
M82 ; use absolute distances for extrusion
G92 E0
G1 E-1.00000 F1800.00000
G92 E0
G1 Z0.300 F7800.000
G1 X60.157 Y39.603 F7800.000
G1 E1.00000 F1800.00000
G1 X60.276 Y39.422 E1.00355 F720.000
G1 X62.408 Y36.890 E1.05772
G1 X64.430 Y35.295 E1.09988
G1 X84.019 Y25.473 E1.45851
G1 X86.329 Y24.820 E1.49780
G1 X97.152 Y23.881 E1.67560
G1 X97.704 Y23.857 E1.68464
G1 X102.017 Y23.857 E1.75523
G1 X102.958 Y23.869 E1.77063 F720.000
G1 X105.169 Y24.295 E1.80748
G1 X106.460 Y24.970 E1.83132
G1 X136.072 Y45.065 E2.41701
G1 X137.683 Y46.637 E2.45386
G1 X138.586 Y48.461 E2.48716
G1 X138.916 Y49.525 E2.50539
G1 X139.097 Y50.263 E2.51784
G1 X139.558 Y52.785 E2.55979
G1 X139.663 Y53.900 E2.57812
G1 X139.791 Y77.741 E2.96831
G1 X139.114 Y80.636 E3.01698
G1 X138.968 Y80.927 E3.02230
G1 X138.228 Y82.078 E3.04469
G1 X124.580 Y98.981 E3.40026
G1 X122.573 Y100.627 E3.44273
G1 X103.860 Y110.424 E3.78843
G1 X100.899 Y111.153 E3.83834
G1 X97.448 Y111.153 E3.89482
G1 X95.232 Y110.756 E3.93167
G1 X93.842 Y110.037 E3.95728
G1 X73.927 Y96.413 E4.35218
G1 X72.272 Y94.762 E4.39044
G1 X61.292 Y78.803 E4.70748
G1 X60.841 Y78.039 E4.72199
G1 X59.979 Y76.316 E4.75352
G1 X59.360 Y74.294 E4.78813
G1 X58.642 Y68.842 E4.87812
G1 X58.588 Y68.100 E4.89031
G1 X58.251 Y44.675 E5.27373
G1 X58.927 Y41.722 E5.32331
G1 X59.452 Y40.674 E5.34250
G1 X60.116 Y39.666 E5.36224
G1 E4.36224 F1800.00000
G92 E0
G1 X101.441 Y73.909 F7800.000
G1 E1.00000 F1800.00000
G1 X100.383 Y74.097 E1.01758 F252.000
G1 E0.01758 F1800.00000
G92 E0
G1 Z0.300 F7800.000
G1 X97.664 Y64.746 F7800.000
G1 E1.00000 F1800.00000
G1 X100.222 Y59.643 E1.09343 F720.000
G1 X101.085 Y59.643 F7800.000
G1 X99.129 Y63.544 E1.16485 F720.000
G1 X97.565 Y63.223 F7800.000
G1 X99.360 Y59.643 E1.23039 F720.000
G1 X98.497 Y59.643 E1.24451
G1 X97.466 Y61.699 E1.28217
G1 X97.367 Y60.176 E1.30715
G1 X97.634 Y59.643 E1.31692
G1 X100.859 Y61.815 F7800.000
G1 X101.948 Y59.643 E1.35668 F720.000
G1 X102.810 Y59.643 E1.37080
G1 X102.588 Y60.085 E1.37890
G1 E0.37890 F1800.00000
G92 E0
G1 X103.176 Y52.028 F7800.000
G1 E1.00000 F1800.00000
G1 X103.418 Y51.544 E1.00885 F720.000
G1 X102.821 Y51.015 E1.02191
G1 X102.313 Y52.028 E1.04044
G1 X101.451 Y52.028 E1.05456
G1 X102.223 Y50.486 E1.08277
G1 X101.626 Y49.957 E1.09583
G1 X100.948 Y51.309 E1.12057
G1 X99.725 Y52.028 F7800.000
G1 X100.342 Y50.797 E1.14310 F720.000
G1 X100.342 Y49.076 E1.17127
G1 X98.863 Y52.028 E1.22530
G1 X98.000 Y52.028 E1.23942
G1 X99.833 Y48.371 E1.30637
G1 X99.235 Y47.842 E1.31943
G1 X97.373 Y51.558 E1.38747
G1 X97.854 Y48.876 F7800.000
G1 X98.638 Y47.313 E1.41609 F720.000
G1 E0.41609 F1800.00000
G92 E0
G1 X94.014 Y39.325 F7800.000
G1 E1.00000 F1800.00000
G1 X94.443 Y38.471 E1.01564 F720.000
G1 X93.976 Y37.680 E1.03067
G1 X92.881 Y39.866 E1.07068
G1 X92.278 Y39.348 F7800.000
G1 X93.510 Y36.889 E1.11570 F720.000
G1 X93.044 Y36.098 E1.13072
G1 X91.578 Y39.021 E1.18424
G1 X90.975 Y38.504 F7800.000
G1 X91.184 Y38.088 E1.19186 F720.000
G1 X90.896 Y36.941 F7800.000
G1 X91.211 Y36.312 E1.20338 F720.000
G1 X90.745 Y35.521 E1.21841
G1 X89.673 Y37.659 E1.25756
G1 X89.070 Y37.142 F7800.000
G1 X90.279 Y34.730 E1.30172 F720.000
G1 X89.812 Y33.939 E1.31674
G1 X88.371 Y36.815 E1.36940
G1 X87.413 Y37.006 F7800.000
G1 X88.746 Y34.345 E1.41811 F720.000
G1 X88.280 Y33.554 E1.43314
G1 X86.742 Y36.622 E1.48930
G1 X86.197 Y35.989 F7800.000
G1 X87.814 Y32.763 E1.54837 F720.000
G1 X87.347 Y31.972 E1.56339
G1 X85.480 Y35.698 E1.63160
G1 X84.849 Y35.236 E1.64440
G1 X86.881 Y31.181 E1.71863
G1 X84.685 Y33.842 F7800.000
G1 X84.218 Y34.774 E1.73569 F720.000
G1 E0.73569 F1800.00000
G92 E0
G1 X83.161 Y40.325 F7800.000
G1 E1.00000 F1800.00000
G1 X83.292 Y40.063 E1.00479 F720.000
G1 X82.440 Y40.043 E1.01875
G1 X81.432 Y42.054 E1.05558
G1 X81.577 Y40.043 F7800.000
G1 X79.702 Y43.784 E1.12406 F720.000
G1 X77.979 Y43.779 F7800.000
G1 X79.852 Y40.043 E1.19247 F720.000
G1 X80.714 Y40.043 E1.20659
G1 X78.078 Y45.303 E1.30288
G1 X77.880 Y42.256 F7800.000
G1 X78.989 Y40.043 E1.34341 F720.000
G1 X78.126 Y40.043 E1.35753
G1 X77.780 Y40.733 E1.37017
G1 E0.37017 F1800.00000
G92 E0
G1 X84.463 Y41.170 F7800.000
G1 E1.00000 F1800.00000
G1 X85.944 Y38.216 E1.05408 F720.000
G1 X87.037 Y37.756 E1.07350
G1 X85.094 Y41.632 E1.14446
G1 X85.725 Y42.094 E1.15726
G1 X87.503 Y38.546 E1.22220
G1 X87.969 Y39.337 E1.23723
G1 X86.356 Y42.556 E1.29615
G1 X86.987 Y43.018 E1.30895
G1 X88.436 Y40.128 E1.36186
G1 X88.902 Y40.919 E1.37688
G1 X88.522 Y41.676 E1.39074
G1 E0.39074 F1800.00000
G92 E0
G1 X97.672 Y35.470 F7800.000
G1 E1.00000 F1800.00000
G1 X98.337 Y34.144 E1.02429 F720.000
G1 X97.572 Y33.947 E1.03720
G1 X98.331 Y32.433 E1.06493
G1 X99.271 Y32.279 E1.08051
G1 X100.292 Y30.243 E1.11779
G1 X101.155 Y30.243 E1.13191
G1 X100.214 Y32.118 E1.16625
G1 X101.077 Y32.118 E1.18037
G1 X102.017 Y30.243 E1.21471
G1 X102.874 Y30.254 E1.22874
G1 X102.716 Y30.570 E1.23453
G1 X99.429 Y30.243 F7800.000
G1 X98.328 Y32.440 E1.27475 F720.000
G1 X97.374 Y30.901 E1.30439
G1 X97.704 Y30.243 E1.31644
G1 X98.567 Y30.243 E1.33056
G1 X97.473 Y32.424 E1.37049
G1 E0.37049 F1800.00000
G92 E0
G1 X111.655 Y45.439 F7800.000
G1 E1.00000 F1800.00000
G1 X110.852 Y47.040 E1.02930 F720.000
G1 X110.269 Y49.925 F7800.000
G1 X112.511 Y45.451 E1.11122 F720.000
G1 X113.368 Y45.463 E1.12524
G1 X111.325 Y49.539 E1.19986
G1 X112.382 Y49.152 E1.21827
G1 X113.938 Y46.046 E1.27514
G1 X114.169 Y47.307 E1.29611
G1 X113.438 Y48.765 E1.32282
G1 E0.32282 F1800.00000
G92 E0
G1 X117.212 Y49.843 F7800.000
G1 E1.00000 F1800.00000
G1 X116.960 Y50.344 E1.00918 F720.000
G1 X117.059 Y51.867 E1.03416
G1 X118.074 Y49.843 E1.07123
G1 X118.937 Y49.843 E1.08535
G1 X117.159 Y53.391 E1.15030
G1 X117.258 Y54.914 F7800.000
G1 X119.800 Y49.843 E1.24314 F720.000
G1 X120.662 Y49.843 F7800.000
G1 X118.684 Y53.789 E1.31540 F720.000
G1 X120.414 Y52.060 F7800.000
G1 X121.525 Y49.843 E1.35599 F720.000
G1 X122.388 Y49.843 E1.37011
G1 X122.143 Y50.330 E1.37903
G1 E0.37903 F1800.00000
G92 E0
G1 X129.710 Y52.446 F7800.000
G1 E1.00000 F1800.00000
G1 X130.373 Y51.122 E1.02424 F720.000
G1 X131.430 Y50.735 E1.04266
G1 X130.053 Y53.482 E1.09294
G1 X131.110 Y53.095 E1.11135
G1 X132.486 Y50.349 E1.16163
G1 X132.816 Y51.413 E1.17986
G1 X131.941 Y53.158 E1.21181
G1 X133.046 Y52.674 E1.23156
G1 X132.372 Y54.019 E1.25620
G1 X133.277 Y53.934 E1.27108
G1 X132.866 Y54.755 E1.28610
G1 E0.28610 F1800.00000
G92 E0
G1 X121.949 Y66.209 F7800.000
G1 E1.00000 F1800.00000
G1 X122.053 Y66.001 E1.00380 F720.000
G1 X121.086 Y66.209 E1.01999
G1 X121.828 Y64.730 E1.04707
G1 X121.222 Y64.216 E1.06007
G1 X120.223 Y66.209 E1.09656
G1 X118.987 Y66.956 F7800.000
G1 X121.377 Y62.187 E1.18386 F720.000
G1 X120.453 Y62.309 E1.19912
G1 X118.124 Y66.956 E1.28418
G1 X117.261 Y66.956 E1.29830
G1 X119.396 Y62.696 E1.37628
G1 X118.373 Y63.017 E1.39384
G1 X116.569 Y66.616 E1.45973
G1 X115.971 Y66.087 E1.47279
G1 X117.316 Y63.404 E1.52192
G1 X116.260 Y63.791 E1.54033
G1 X115.373 Y65.559 E1.57270
G1 X114.776 Y65.030 E1.58576
G1 X115.203 Y64.177 E1.60136
G1 E0.60136 F1800.00000
G92 E0
G1 X129.673 Y74.896 F7800.000
G1 E1.00000 F1800.00000
G1 X129.880 Y74.481 E1.00758 F720.000
G1 X130.937 Y74.095 E1.02599
G1 X129.717 Y76.529 E1.07056
G1 X130.268 Y77.150 E1.08415
G1 X131.993 Y73.708 E1.14717
G1 X132.713 Y73.993 E1.15984
G1 X131.016 Y77.379 E1.22183
G1 X131.764 Y77.608 E1.23463
G1 X132.944 Y75.254 E1.27774
G1 X133.175 Y76.514 E1.29872
G1 X132.512 Y77.837 E1.32293
G1 X133.406 Y77.775 E1.33760
G1 X133.260 Y78.066 E1.34292
G1 E0.34292 F1800.00000
G92 E0
G1 X119.612 Y94.970 F7800.000
G1 E1.00000 F1800.00000
G1 X120.092 Y94.011 E1.01755 F720.000
G1 X119.912 Y92.649 E1.04004
G1 X118.749 Y94.970 E1.08252
G1 X117.886 Y94.970 E1.09664
G1 X119.456 Y91.837 E1.15398
G1 X118.840 Y91.345 E1.16689
G1 X117.024 Y94.970 E1.23324
G1 X116.706 Y93.882 E1.25179
G1 X117.840 Y91.620 E1.29321
G1 X116.840 Y91.894 E1.31018
G1 X116.667 Y92.239 E1.31650
G1 E0.31650 F1800.00000
G92 E0
G1 X101.580 Y93.080 F7800.000
G1 E1.00000 F1800.00000
G1 X102.034 Y92.174 E1.01659 F720.000
G1 X101.716 Y91.087 E1.03513
G1 X100.717 Y93.080 E1.07162
G1 X99.854 Y93.080 E1.08574
G1 X100.853 Y91.087 E1.12223
G1 X101.274 Y90.248 F7800.000
G1 X101.583 Y89.631 E1.13353 F720.000
G1 X101.034 Y89.006 E1.14714
G1 X98.268 Y94.524 E1.24816
G1 X98.865 Y95.053 E1.26122
G1 X99.562 Y93.662 E1.28668
G1 X97.670 Y93.995 F7800.000
G1 X99.977 Y89.392 E1.37094 F720.000
G1 X98.953 Y89.714 E1.38849
G1 X97.073 Y93.466 E1.45719
G1 X96.475 Y92.937 E1.47025
G1 X97.897 Y90.100 E1.52218
G1 X96.840 Y90.487 E1.54060
G1 X95.878 Y92.408 E1.57577
G1 X95.280 Y91.879 E1.58883
G1 X95.784 Y90.874 E1.60724
G1 E0.60724 F1800.00000
G92 E0
G1 X97.893 Y95.272 F7800.000
G1 E1.00000 F1800.00000
G1 X97.780 Y95.498 E1.00415 F720.000
G1 X97.889 Y95.280 F7800.000
G1 X97.097 Y96.860 E1.03308 F720.000
G1 X97.921 Y96.937 E1.04663
G1 X97.136 Y98.503 E1.07530
G1 E0.07530 F1800.00000
G92 E0
G1 X97.262 Y101.695 F7800.000
G1 E1.00000 F1800.00000
G1 X97.072 Y102.075 E1.00695 F720.000
G1 X97.111 Y103.718 E1.03385
G1 X98.262 Y101.420 E1.07591
G1 X99.262 Y101.146 E1.09289
G1 X97.447 Y104.767 E1.15918
G1 X98.310 Y104.767 E1.17330
G1 X99.868 Y101.658 E1.23023
G1 X100.324 Y102.469 E1.24546
G1 X99.173 Y104.767 E1.28753
G1 X100.035 Y104.767 E1.30164
G1 X100.780 Y103.281 E1.32885
G1 X101.236 Y104.092 E1.34409
G1 X100.898 Y104.767 E1.35644
G1 E0.35644 F1800.00000
G92 E0
G1 X81.728 Y91.379 F7800.000
G1 E1.00000 F1800.00000
G1 X81.851 Y91.134 E1.00449 F720.000
G1 X81.395 Y90.322 E1.01973
G1 X80.865 Y91.379 E1.03908
G1 X80.002 Y91.379 E1.05320
G1 X80.939 Y89.511 E1.08741
G1 X80.483 Y88.699 E1.10264
G1 X79.140 Y91.379 E1.15171
G1 X78.277 Y91.379 E1.16583
G1 X80.027 Y87.888 E1.22975
G1 X79.128 Y87.960 E1.24452
G1 X77.533 Y91.142 E1.30277
G1 X77.494 Y89.499 E1.32967
G1 X78.127 Y88.235 E1.35281
G1 E0.35281 F1800.00000
G92 E0
G1 X80.503 Y80.053 F7800.000
G1 E1.00000 F1800.00000
G1 X80.333 Y80.391 E1.00619 F720.000
G1 X79.471 Y80.391 E1.02031
G1 X81.954 Y75.436 E1.11102
G1 X80.898 Y75.823 E1.12943
G1 X78.608 Y80.391 E1.21306
G1 X77.769 Y80.344 E1.22681
G1 X79.841 Y76.210 E1.30250
G1 X78.818 Y76.531 E1.32006
G1 X77.171 Y79.815 E1.38019
G1 X76.574 Y79.286 E1.39325
G1 X77.761 Y76.917 E1.43661
G1 X76.705 Y77.304 E1.45503
G1 X75.976 Y78.757 E1.48163
G1 X75.379 Y78.228 E1.49469
G1 X75.648 Y77.691 E1.50453
G1 E0.50453 F1800.00000
G92 E0
G1 X80.708 Y79.645 F7800.000
G1 E1.00000 F1800.00000
G1 X81.707 Y77.651 E1.03649 F720.000
G1 X82.441 Y77.908 E1.04922
G1 X81.570 Y79.645 E1.08101
G1 X82.666 Y79.180 E1.10049
G1 X82.433 Y79.645 E1.10900
G1 E0.10900 F1800.00000
G92 E0
G1 X69.631 Y74.204 F7800.000
G1 E1.00000 F1800.00000
G1 X69.770 Y73.928 E1.00505 F720.000
G1 X69.273 Y73.199 E1.01950
G1 X68.673 Y74.394 E1.04139
G1 X67.617 Y74.781 E1.05980
G1 X68.776 Y72.469 E1.10212
G1 X67.937 Y72.421 E1.11587
G1 X66.552 Y75.183 E1.16644
G1 X66.122 Y74.322 E1.18220
G1 X66.880 Y72.808 E1.20992
G1 X65.824 Y73.195 E1.22833
G1 X65.691 Y73.460 E1.23319
G1 E0.23319 F1800.00000
G92 E0
G1 X64.973 Y68.008 F7800.000
G1 E1.00000 F1800.00000
G1 X66.890 Y64.183 E1.07003 F720.000
G1 X67.558 Y64.571 E1.08268
G1 X65.604 Y68.470 E1.15406
G1 X66.235 Y68.932 E1.16686
G1 X68.024 Y65.362 E1.23223
G1 X68.491 Y66.153 E1.24725
G1 X66.866 Y69.394 E1.30660
G1 X67.497 Y69.856 E1.31940
G1 X68.957 Y66.944 E1.37272
G1 X69.423 Y67.735 E1.38775
G1 X68.967 Y68.646 E1.40442
G1 E0.40442 F1800.00000
G92 E0
G1 X71.631 Y59.888 F7800.000
G1 E1.00000 F1800.00000
G1 X71.993 Y59.165 E1.01323 F720.000
G1 X71.331 Y58.765 E1.02590
G1 X70.574 Y60.274 E1.05352
G1 X69.518 Y60.661 E1.07194
G1 X70.668 Y58.366 E1.11395
G1 X70.006 Y57.966 E1.12661
G1 X68.461 Y61.048 E1.18303
G1 X67.642 Y60.962 E1.19651
G1 X69.343 Y57.567 E1.25866
G1 X68.681 Y57.168 E1.27132
G1 X67.211 Y60.100 E1.32501
G1 X66.780 Y59.238 E1.34077
G1 X67.474 Y57.853 E1.36613
G1 E0.36613 F1800.00000
G92 E0
G1 X68.244 Y45.989 F7800.000
G1 E1.00000 F1800.00000
G1 X69.158 Y44.167 E1.03336 F720.000
G1 X68.692 Y43.376 E1.04839
G1 X67.382 Y45.989 E1.09623
G1 X66.529 Y45.969 E1.11019
G1 X68.225 Y42.585 E1.17214
G1 X67.759 Y41.794 E1.18716
G1 X65.898 Y45.507 E1.25513
G1 X65.267 Y45.045 E1.26793
G1 X67.293 Y41.003 E1.34192
G1 X65.161 Y43.535 F7800.000
G1 X64.636 Y44.583 E1.36111 F720.000
M106 S255
M140 S40 ; wait for bed temperature to be reached
G1 E0.36111 F1800.00000
G92 E0
G1 Z0.350 F7800.000
G1 X66.520 Y42.366 F7800.000
G1 E1.00000 F1800.00000
G1 X66.520 Y41.608 E1.00262 F1049.924
G1 X66.003 Y42.366 E1.00580
G1 X66.520 Y42.366 E1.00759
G1 E0.00759 F1800.00000
G92 E0
G1 X78.153 Y45.252 F7800.000
G1 E1.00000 F1800.00000
G1 X83.240 Y40.166 E1.02490 F1049.924
G1 X77.822 Y40.166 E1.04365
G1 X78.153 Y45.252 E1.06129
G1 X78.895 Y43.819 F7800.000
G1 X82.059 Y40.655 E1.07677 F1049.924
G1 X78.344 Y40.655 E1.08963
G1 X78.550 Y43.819 E1.10060
G1 X78.895 Y43.819 E1.10179
G1 E0.10179 F1800.00000
G92 E0
G1 X86.031 Y40.862 F7800.000
G1 E1.00000 F1800.00000
G1 X85.097 Y40.862 E1.00323 F1049.924
G1 X85.722 Y41.319 E1.00591
G1 X86.031 Y41.319 E1.00698
G1 X86.031 Y40.862 E1.00856
G1 X86.520 Y42.366 F7800.000
G1 X86.520 Y40.366 E1.01548 F1049.924
G1 X84.520 Y40.366 E1.02241
G1 X84.520 Y41.046 E1.02476
G1 X86.324 Y42.366 E1.03249
G1 X86.520 Y42.366 E1.03317
G1 E0.03317 F1800.00000
G92 E0
G1 X90.599 Y36.467 F7800.000
G1 E1.00000 F1800.00000
G1 X89.463 Y34.540 E1.00774 F1049.924
G1 X89.036 Y34.966 E1.00983
G1 X89.561 Y35.856 E1.01340
G1 X88.998 Y36.418 E1.01616
G1 X90.089 Y36.928 E1.02033
G1 X90.599 Y36.467 E1.02270
G1 X91.223 Y36.562 F7800.000
G1 X89.563 Y33.747 E1.03401 F1049.924
G1 X88.422 Y34.888 E1.03960
G1 X88.947 Y35.778 E1.04317
G1 X88.370 Y36.355 E1.04599
G1 X87.553 Y35.757 E1.04950
G1 X86.807 Y36.503 E1.05315
G1 X87.164 Y36.765 E1.05468
G1 X87.230 Y36.705 E1.05499
G1 X87.523 Y36.920 E1.05625
G1 X87.738 Y36.606 E1.05756
G1 X87.765 Y36.619 E1.05767
G1 X87.888 Y36.440 E1.05842
G1 X89.582 Y37.231 E1.06489
G1 X89.431 Y37.397 E1.06567
G1 X90.005 Y37.665 E1.06786
G1 X91.223 Y36.562 E1.07354
G1 E0.07354 F1800.00000
G92 E0
G1 X94.501 Y38.801 F7800.000
G1 E1.00000 F1800.00000
G1 X92.842 Y35.986 E1.01131 F1049.924
G1 X91.701 Y37.127 E1.01689
G1 X92.225 Y38.017 E1.02047
G1 X91.648 Y38.594 E1.02329
G1 X90.832 Y37.996 E1.02679
G1 X90.634 Y38.194 E1.02776
G1 X91.768 Y38.724 E1.03210
G1 X91.617 Y38.890 E1.03287
G1 X92.861 Y39.470 E1.03762
G1 X92.710 Y39.636 E1.03840
G1 X93.283 Y39.904 E1.04059
G1 X94.501 Y38.801 E1.04627
G1 E0.04627 F1800.00000
G92 E0
G1 X101.211 Y31.995 F7800.000
G1 E1.00000 F1800.00000
G1 X102.840 Y30.366 E1.00797 F1049.924
G1 X97.418 Y30.366 E1.02674
G1 X97.749 Y35.456 E1.04439
G1 X98.281 Y34.925 E1.04700
G1 X98.245 Y33.415 E1.05222
G1 X98.263 Y33.415 E1.05229
G1 X98.278 Y33.294 E1.05271
G1 X98.254 Y32.317 E1.05609
G1 X98.635 Y32.317 E1.05741
G1 X98.655 Y32.263 E1.05761
G1 X98.928 Y32.263 E1.05855
G1 X98.948 Y32.209 E1.05875
G1 X99.221 Y32.209 E1.05969
G1 X99.241 Y32.156 E1.05989
G1 X99.514 Y32.156 E1.06084
G1 X99.534 Y32.102 E1.06104
G1 X99.807 Y32.102 E1.06198
G1 X99.826 Y32.049 E1.06218
G1 X100.100 Y32.049 E1.06312
G1 X100.119 Y31.995 E1.06332
G1 X101.211 Y31.995 E1.06710
G1 X101.008 Y31.506 F7800.000
G1 X101.659 Y30.855 E1.07028 F1049.924
G1 X97.940 Y30.855 E1.08315
G1 X98.003 Y31.827 E1.08653
G1 X98.294 Y31.827 E1.08753
G1 X98.313 Y31.774 E1.08773
G1 X98.586 Y31.774 E1.08867
G1 X98.606 Y31.720 E1.08887
G1 X98.879 Y31.720 E1.08982
G1 X98.899 Y31.666 E1.09001
G1 X99.172 Y31.666 E1.09096
G1 X99.192 Y31.613 E1.09116
G1 X99.465 Y31.613 E1.09210
