; generated by Slic3r 1.3.0-dev on 2020-07-03 at 16:17:41

; external perimeters extrusion width = 0.40mm
; perimeters extrusion width = 0.67mm
; infill extrusion width = 0.67mm
; solid infill extrusion width = 0.67mm
; top infill extrusion width = 0.67mm

M107
M190 S40 ; set bed temperature and wait for it to be reached
M104 S200 ; set temperature
G1 Z5 F5000 ; lift nozzle
M121
G1 X0 Y0 F1200
T0
G92 E0
G1 E5.0
G92 E0
T1
G92 E0
G1 E5.0
G92 E0
G1 X313 Y175 F600
M109 S200 ; set temperature and wait for it to be reached
G21 ; set units to millimeters
G90 ; use absolute coordinates
M82 ; use absolute distances for extrusion
G92 E0
G1 Z0.200 F7800.000
G1 E-0.50000 F2400.00000
G92 E0
G1 X254.178 Y160.738 F7800.000
G1 E0.50000 F2400.00000
G1 F1800
G1 X255.033 Y159.421 E0.56060
G1 X255.424 Y158.883 E0.58629
G1 X256.412 Y157.662 E0.64689
G1 X256.858 Y157.168 E0.67257
G1 X257.968 Y156.058 E0.73318
G1 X258.462 Y155.612 E0.75886
G1 X259.683 Y154.624 E0.81946
G1 X260.221 Y154.233 E0.84515
G1 X261.538 Y153.378 E0.90575
G1 X262.114 Y153.045 E0.93143
G1 X263.513 Y152.333 E0.99204
G1 X264.121 Y152.062 E1.01772
G1 X265.587 Y151.499 E1.07832
G1 X266.219 Y151.294 E1.10401
G1 X267.736 Y150.887 E1.16461
G1 X268.387 Y150.749 E1.19029
G1 X269.938 Y150.503 E1.25090
G1 X270.599 Y150.434 E1.27658
G1 X272.167 Y150.352 E1.33718
G1 X272.833 Y150.352 E1.36287
G1 X274.401 Y150.434 E1.42347
G1 X275.062 Y150.503 E1.44915
G1 X276.303 Y150.700 E1.49764
G1 X277.264 Y150.887 E1.53543
G1 X278.781 Y151.294 E1.59603
G1 X279.413 Y151.499 E1.62172
G1 X280.879 Y152.062 E1.68232
G1 X281.487 Y152.333 E1.70800
G1 X282.886 Y153.045 E1.76861
G1 X283.462 Y153.378 E1.79429
G1 X284.779 Y154.233 E1.85489
G1 X285.317 Y154.624 E1.88058
G1 X286.538 Y155.612 E1.94118
G1 X287.032 Y156.058 E1.96686
G1 X288.142 Y157.168 E2.02747
G1 X288.588 Y157.662 E2.05315
G1 X289.576 Y158.883 E2.11375
G1 X289.967 Y159.421 E2.13944
G1 X290.822 Y160.738 E2.20004
G1 X291.155 Y161.314 E2.22573
G1 X291.867 Y162.713 E2.28633
G1 X292.138 Y163.321 E2.31201
G1 X292.701 Y164.787 E2.37262
G1 X292.906 Y165.419 E2.39830
G1 X293.313 Y166.936 E2.45890
G1 X293.451 Y167.587 E2.48459
G1 X293.697 Y169.138 E2.54519
G1 X293.766 Y169.799 E2.57087
G1 X293.848 Y171.367 E2.63148
G1 X293.848 Y172.033 E2.65716
G1 X293.766 Y173.601 E2.71776
G1 X293.697 Y174.262 E2.74345
G1 X293.451 Y175.813 E2.80405
G1 X293.313 Y176.464 E2.82973
G1 X292.906 Y177.981 E2.89034
G1 X292.701 Y178.613 E2.91602
G1 X292.251 Y179.786 E2.96450
G1 X291.867 Y180.687 E3.00230
G1 X291.155 Y182.086 E3.06290
G1 X290.822 Y182.662 E3.08858
G1 X289.967 Y183.979 E3.14919
G1 X289.576 Y184.517 E3.17487
G1 X288.588 Y185.738 E3.23547
G1 X288.142 Y186.232 E3.26116
G1 X287.032 Y187.342 E3.32176
G1 X286.538 Y187.788 E3.34744
G1 X285.317 Y188.776 E3.40805
G1 X284.779 Y189.167 E3.43373
G1 X283.462 Y190.022 E3.49433
G1 X282.886 Y190.355 E3.52002
G1 X281.487 Y191.067 E3.58062
G1 X280.879 Y191.338 E3.60630
G1 X279.413 Y191.901 E3.66691
G1 X278.781 Y192.106 E3.69259
G1 X277.264 Y192.513 E3.75319
G1 X276.613 Y192.651 E3.77888
G1 X275.062 Y192.897 E3.83948
G1 X274.401 Y192.966 E3.86516
G1 X273.146 Y193.032 E3.91365
G1 X272.167 Y193.048 E3.95144
G1 X270.599 Y192.966 E4.01204
G1 X269.938 Y192.897 E4.03773
G1 X268.387 Y192.651 E4.09833
G1 X267.736 Y192.513 E4.12401
G1 X266.219 Y192.106 E4.18462
G1 X265.587 Y191.901 E4.21030
G1 X264.121 Y191.338 E4.27090
G1 X263.513 Y191.067 E4.29659
G1 X262.114 Y190.355 E4.35719
G1 X261.538 Y190.022 E4.38287
G1 X260.221 Y189.167 E4.44348
G1 X259.683 Y188.776 E4.46916
G1 X258.462 Y187.788 E4.52976
G1 X257.968 Y187.342 E4.55545
G1 X256.858 Y186.232 E4.61605
G1 X256.412 Y185.738 E4.64173
G1 X255.424 Y184.517 E4.70234
G1 X255.033 Y183.979 E4.72802
G1 X254.178 Y182.662 E4.78862
G1 X253.845 Y182.086 E4.81431
G1 X253.133 Y180.687 E4.87491
G1 X252.862 Y180.079 E4.90059
G1 X252.299 Y178.613 E4.96120
G1 X252.094 Y177.981 E4.98688
G1 X251.687 Y176.464 E5.04748
G1 X251.549 Y175.813 E5.07317
G1 X251.303 Y174.262 E5.13377
G1 X251.234 Y173.601 E5.15946
G1 X251.152 Y172.033 E5.22006
G1 X251.152 Y171.367 E5.24574
G1 X251.234 Y169.799 E5.30634
G1 X251.303 Y169.138 E5.33203
G1 X251.549 Y167.587 E5.39263
G1 X251.687 Y166.936 E5.41832
G1 X252.094 Y165.419 E5.47892
G1 X252.299 Y164.787 E5.50460
G1 X252.862 Y163.321 E5.56521
G1 X253.133 Y162.713 E5.59089
G1 X253.845 Y161.314 E5.65149
G1 X254.148 Y160.790 E5.67486
G1 E5.17486 F2400.00000
G92 E0
G1 X276.044 Y173.746 F7800.000
G1 E0.50000 F2400.00000
G1 F1800
G1 X275.641 Y174.323 E0.52716
G1 X275.132 Y174.834 E0.55502
G1 X274.546 Y175.244 E0.58260
G1 X273.900 Y175.546 E0.61014
G1 X273.211 Y175.730 E0.63768
G1 X272.500 Y175.793 E0.66521
G1 X271.789 Y175.730 E0.69275
G1 X271.100 Y175.546 E0.72028
G1 X270.454 Y175.244 E0.74782
G1 X269.869 Y174.835 E0.77536
G1 X269.365 Y174.331 E0.80289
G1 X268.956 Y173.746 E0.83043
G1 X268.654 Y173.100 E0.85796
G1 X268.470 Y172.411 E0.88550
G1 X268.407 Y171.700 E0.91304
G1 X268.470 Y170.989 E0.94057
G1 X268.654 Y170.300 E0.96811
G1 X268.956 Y169.654 E0.99565
G1 X269.365 Y169.069 E1.02318
G1 X269.869 Y168.565 E1.05072
G1 X270.454 Y168.156 E1.07825
G1 X271.100 Y167.854 E1.10579
G1 X271.789 Y167.670 E1.13333
G1 X272.490 Y167.608 E1.16049
G1 X273.210 Y167.669 E1.18835
G1 X273.900 Y167.854 E1.21593
G1 X274.546 Y168.156 E1.24347
G1 X275.131 Y168.565 E1.27100
G1 X275.635 Y169.069 E1.29854
G1 X276.044 Y169.654 E1.32607
G1 X276.342 Y170.291 E1.35324
G1 X276.530 Y170.988 E1.38109
G1 X276.593 Y171.700 E1.40868
G1 X276.530 Y172.411 E1.43621
G1 X276.346 Y173.100 E1.46375
G1 X276.070 Y173.692 E1.48897
G1 X275.734 Y173.567 F7800.000
G1 F1800
G1 X275.366 Y174.093 E1.51374
G1 X274.901 Y174.560 E1.53919
G1 X274.367 Y174.934 E1.56434
G1 X273.777 Y175.209 E1.58946
G1 X273.148 Y175.377 E1.61459
G1 X272.500 Y175.434 E1.63971
G1 X271.852 Y175.377 E1.66484
G1 X271.223 Y175.209 E1.68996
G1 X270.633 Y174.934 E1.71509
G1 X270.100 Y174.561 E1.74021
G1 X269.639 Y174.100 E1.76533
G1 X269.266 Y173.567 E1.79046
G1 X268.991 Y172.977 E1.81558
G1 X268.823 Y172.348 E1.84071
G1 X268.766 Y171.700 E1.86583
G1 X268.823 Y171.052 E1.89096
G1 X268.991 Y170.423 E1.91608
G1 X269.266 Y169.833 E1.94121
G1 X269.639 Y169.300 E1.96633
G1 X270.100 Y168.839 E1.99145
G1 X270.633 Y168.466 E2.01658
G1 X271.223 Y168.191 E2.04170
G1 X271.852 Y168.023 E2.06683
G1 X272.491 Y167.967 E2.09160
G1 X273.148 Y168.022 E2.11704
G1 X273.777 Y168.191 E2.14220
G1 X274.367 Y168.466 E2.16732
G1 X274.900 Y168.839 E2.19245
G1 X275.361 Y169.300 E2.21757
G1 X275.734 Y169.833 E2.24269
G1 X276.005 Y170.414 E2.26746
G1 X276.177 Y171.051 E2.29291
G1 X276.234 Y171.700 E2.31806
G1 X276.177 Y172.348 E2.34319
G1 X276.009 Y172.977 E2.36831
G1 X275.759 Y173.513 E2.39112
G1 X275.423 Y173.388 F7800.000
G1 F1800
G1 X275.091 Y173.863 E2.41349
G1 X274.670 Y174.286 E2.43653
G1 X274.188 Y174.623 E2.45925
G1 X273.655 Y174.872 E2.48197
G1 X273.086 Y175.024 E2.50468
G1 X272.500 Y175.076 E2.52739
G1 X271.914 Y175.024 E2.55011
G1 X271.345 Y174.872 E2.57282
G1 X270.812 Y174.623 E2.59553
G1 X270.330 Y174.286 E2.61824
G1 X269.914 Y173.870 E2.64096
G1 X269.577 Y173.388 E2.66367
G1 X269.328 Y172.855 E2.68638
G1 X269.176 Y172.286 E2.70909
G1 X269.124 Y171.700 E2.73181
G1 X269.176 Y171.114 E2.75452
G1 X269.328 Y170.545 E2.77723
G1 X269.577 Y170.012 E2.79995
G1 X269.914 Y169.530 E2.82266
G1 X270.330 Y169.114 E2.84537
G1 X270.812 Y168.777 E2.86808
G1 X271.345 Y168.528 E2.89080
G1 X271.914 Y168.376 E2.91351
G1 X272.491 Y168.325 E2.93588
G1 X273.086 Y168.375 E2.95892
G1 X273.655 Y168.528 E2.98164
G1 X274.188 Y168.777 E3.00436
G1 X274.670 Y169.114 E3.02707
G1 X275.086 Y169.530 E3.04978
G1 X275.423 Y170.012 E3.07249
G1 X275.668 Y170.537 E3.09487
G1 X275.824 Y171.114 E3.11790
G1 X275.876 Y171.700 E3.14063
G1 X275.824 Y172.286 E3.16334
G1 X275.672 Y172.855 E3.18605
G1 X275.449 Y173.334 E3.20645
G1 X275.423 Y173.388 F7800.000
G1 E2.70645 F2400.00000
G92 E0
G1 X284.952 Y178.243 F7800.000
G1 E0.50000 F2400.00000
G1 F1800
G1 X284.698 Y178.742 E0.52163
G1 X283.895 Y179.979 E0.57854
G1 X282.967 Y181.124 E0.63544
G1 X281.924 Y182.167 E0.69235
G1 X280.779 Y183.095 E0.74925
G1 X279.542 Y183.898 E0.80616
G1 X278.229 Y184.567 E0.86306
G1 X276.852 Y185.095 E0.91997
G1 X275.428 Y185.477 E0.97687
G1 X273.972 Y185.707 E1.03377
G1 X272.500 Y185.785 E1.09068
G1 X271.028 Y185.707 E1.14758
G1 X269.572 Y185.477 E1.20449
G1 X268.148 Y185.095 E1.26139
G1 X266.771 Y184.567 E1.31830
G1 X265.458 Y183.898 E1.37520
G1 X264.221 Y183.095 E1.43211
G1 X263.076 Y182.167 E1.48901
G1 X262.033 Y181.124 E1.54591
G1 X261.105 Y179.979 E1.60282
G1 X260.302 Y178.742 E1.65972
G1 X259.633 Y177.429 E1.71663
G1 X259.105 Y176.052 E1.77353
G1 X258.723 Y174.628 E1.83044
G1 X258.493 Y173.172 E1.88734
G1 X258.415 Y171.700 E1.94425
G1 X258.493 Y170.228 E2.00115
G1 X258.723 Y168.772 E2.05806
G1 X259.105 Y167.348 E2.11496
G1 X259.633 Y165.971 E2.17186
G1 X260.302 Y164.658 E2.22877
G1 X261.105 Y163.421 E2.28567
G1 X262.033 Y162.276 E2.34258
G1 X263.076 Y161.233 E2.39948
G1 X264.221 Y160.305 E2.45639
G1 X265.458 Y159.502 E2.51329
G1 X266.771 Y158.833 E2.57020
G1 X268.148 Y158.305 E2.62710
G1 X269.572 Y157.923 E2.68401
G1 X271.028 Y157.693 E2.74091
G1 X272.500 Y157.615 E2.79781
G1 X273.972 Y157.693 E2.85472
G1 X275.428 Y157.923 E2.91162
G1 X276.852 Y158.305 E2.96853
G1 X278.229 Y158.833 E3.02543
G1 X279.542 Y159.502 E3.08234
G1 X280.779 Y160.305 E3.13924
G1 X281.924 Y161.233 E3.19615
G1 X282.967 Y162.276 E3.25305
G1 X283.895 Y163.421 E3.30996
G1 X284.698 Y164.658 E3.36686
G1 X285.367 Y165.971 E3.42376
G1 X285.895 Y167.348 E3.48067
G1 X286.277 Y168.772 E3.53757
G1 X286.507 Y170.228 E3.59448
G1 X286.585 Y171.700 E3.65138
G1 X286.507 Y173.172 E3.70829
G1 X286.277 Y174.628 E3.76519
G1 X285.895 Y176.052 E3.82210
G1 X285.367 Y177.429 E3.87900
G1 X284.979 Y178.189 E3.91196
G1 X285.270 Y178.405 F7800.000
G1 F1800
G1 X285.007 Y178.921 E3.93431
G1 X284.184 Y180.189 E3.99266
G1 X283.233 Y181.364 E4.05101
G1 X282.164 Y182.433 E4.10936
G1 X280.989 Y183.384 E4.16771
G1 X279.721 Y184.207 E4.22606
G1 X278.374 Y184.894 E4.28441
G1 X276.963 Y185.435 E4.34276
G1 X275.503 Y185.827 E4.40110
G1 X274.010 Y186.063 E4.45945
G1 X272.500 Y186.142 E4.51780
G1 X270.990 Y186.063 E4.57615
G1 X269.497 Y185.827 E4.63450
G1 X268.037 Y185.435 E4.69285
G1 X266.626 Y184.894 E4.75120
G1 X265.279 Y184.207 E4.80955
G1 X264.011 Y183.384 E4.86790
G1 X262.836 Y182.433 E4.92625
G1 X261.767 Y181.364 E4.98460
G1 X260.995 Y180.410 E5.03195
G1 X260.816 Y180.189 E5.04295
G1 X259.993 Y178.921 E5.10129
G1 X259.306 Y177.574 E5.15964
G1 X258.765 Y176.163 E5.21799
G1 X258.373 Y174.703 E5.27634
G1 X258.137 Y173.210 E5.33469
G1 X258.058 Y171.700 E5.39304
G1 X258.137 Y170.190 E5.45139
G1 X258.373 Y168.697 E5.50974
G1 X258.765 Y167.237 E5.56809
G1 X259.306 Y165.826 E5.62644
G1 X259.993 Y164.479 E5.68479
G1 X260.816 Y163.211 E5.74314
G1 X261.767 Y162.036 E5.80148
G1 X262.836 Y160.967 E5.85983
G1 X264.011 Y160.016 E5.91818
G1 X265.279 Y159.193 E5.97653
G1 X266.626 Y158.506 E6.03488
G1 X268.037 Y157.965 E6.09323
G1 X269.497 Y157.573 E6.15158
G1 X270.990 Y157.337 E6.20993
G1 X272.500 Y157.258 E6.26828
G1 X274.010 Y157.337 E6.32663
G1 X275.503 Y157.573 E6.38498
G1 X276.963 Y157.965 E6.44333
G1 X278.374 Y158.506 E6.50167
G1 X279.721 Y159.193 E6.56002
G1 X280.989 Y160.016 E6.61837
G1 X282.164 Y160.967 E6.67672
G1 X283.233 Y162.036 E6.73507
G1 X284.184 Y163.211 E6.79342
G1 X285.007 Y164.479 E6.85177
G1 X285.694 Y165.826 E6.91012
G1 X286.235 Y167.237 E6.96847
G1 X286.627 Y168.697 E7.02682
G1 X286.863 Y170.190 E7.08517
G1 X286.942 Y171.700 E7.14352
G1 X286.863 Y173.210 E7.20186
G1 X286.627 Y174.703 E7.26021
G1 X286.235 Y176.163 E7.31856
G1 X285.694 Y177.574 E7.37691
G1 X285.297 Y178.352 E7.41059
G1 X285.588 Y178.567 F7800.000
G1 F1800
G1 X285.317 Y179.100 E7.43367
G1 X284.473 Y180.399 E7.49346
G1 X283.498 Y181.603 E7.55326
G1 X282.403 Y182.698 E7.61305
G1 X281.199 Y183.673 E7.67284
G1 X279.900 Y184.517 E7.73264
G1 X278.520 Y185.220 E7.79243
G1 X277.073 Y185.775 E7.85222
G1 X275.577 Y186.176 E7.91202
G1 X274.047 Y186.419 E7.97181
G1 X272.500 Y186.500 E8.03161
G1 X270.953 Y186.419 E8.09140
G1 X269.423 Y186.176 E8.15119
G1 X267.927 Y185.775 E8.21099
G1 X266.480 Y185.220 E8.27078
G1 X265.100 Y184.517 E8.33058
G1 X263.801 Y183.673 E8.39037
G1 X262.597 Y182.698 E8.45016
G1 X261.502 Y181.603 E8.50996
G1 X260.718 Y180.635 E8.55803
G1 X260.527 Y180.399 E8.56975
G1 X259.683 Y179.100 E8.62954
G1 X258.980 Y177.720 E8.68934
G1 X258.425 Y176.273 E8.74913
G1 X258.024 Y174.777 E8.80893
G1 X257.781 Y173.247 E8.86872
G1 X257.700 Y171.700 E8.92851
G1 X257.781 Y170.153 E8.98831
G1 X258.024 Y168.623 E9.04810
G1 X258.425 Y167.127 E9.10789
G1 X258.980 Y165.680 E9.16769
G1 X259.683 Y164.300 E9.22748
G1 X260.527 Y163.001 E9.28728
G1 X261.502 Y161.797 E9.34707
G1 X262.597 Y160.702 E9.40686
G1 X263.801 Y159.727 E9.46666
G1 X265.100 Y158.883 E9.52645
G1 X266.480 Y158.180 E9.58625
G1 X267.927 Y157.625 E9.64604
G1 X269.423 Y157.224 E9.70583
G1 X270.953 Y156.981 E9.76563
G1 X272.500 Y156.900 E9.82542
G1 X274.047 Y156.981 E9.88521
G1 X275.577 Y157.224 E9.94501
G1 X277.073 Y157.625 E10.00480
G1 X278.520 Y158.180 E10.06460
G1 X279.900 Y158.883 E10.12439
G1 X281.199 Y159.727 E10.18418
G1 X282.403 Y160.702 E10.24398
G1 X283.498 Y161.797 E10.30377
G1 X284.473 Y163.001 E10.36357
G1 X285.317 Y164.300 E10.42336
G1 X286.020 Y165.680 E10.48315
G1 X286.575 Y167.127 E10.54295
G1 X286.976 Y168.623 E10.60274
G1 X287.219 Y170.153 E10.66253
G1 X287.300 Y171.700 E10.72233
G1 X287.219 Y173.247 E10.78212
G1 X286.976 Y174.777 E10.84192
G1 X286.575 Y176.273 E10.90171
G1 X286.020 Y177.720 E10.96150
G1 X285.616 Y178.514 E10.99590
G1 X285.189 Y178.597 F7800.000
G1 E10.49590 F2400.00000
G92 E0
G1 X281.546 Y182.040 F7800.000
G1 E0.50000 F2400.00000
G1 F1800
G1 X282.840 Y180.746 E0.57135
G1 X283.744 Y179.630 E0.62737
G1 X284.296 Y178.780 E0.66686
G1 X279.580 Y183.496 E0.92691
G1 X279.225 Y183.727 E0.94345
G1 X278.439 Y184.127 E0.97784
G1 X284.927 Y177.639 E1.33566
G1 X285.179 Y177.144 E1.35729
G1 X285.346 Y176.710 E1.37544
G1 X277.510 Y184.546 E1.80757
G1 X276.682 Y184.864 E1.84216
G1 X285.664 Y175.882 E2.33748
G1 X285.863 Y175.173 E2.36621
G1 X275.973 Y185.063 E2.91163
G1 X275.276 Y185.250 E2.93977
G1 X286.050 Y174.476 E3.53392
G1 X286.154 Y173.862 E3.55821
G1 X274.662 Y185.354 E4.19196
G1 X274.055 Y185.450 E4.21589
G1 X286.250 Y173.255 E4.88836
G1 X286.291 Y172.996 E4.89860
G1 X286.307 Y172.688 E4.91063
G1 X273.488 Y185.507 E5.61754
G1 X272.950 Y185.535 E5.63857
G1 X286.335 Y172.150 E6.37673
G1 X286.363 Y171.611 E6.39775
G1 X272.411 Y185.563 E7.16716
G1 X271.921 Y185.543 E7.18627
G1 X286.343 Y171.121 E7.98156
G1 X286.317 Y170.637 E8.00049
G1 X271.437 Y185.517 E8.82112
G1 X270.952 Y185.492 E8.84004
G1 X286.292 Y170.152 E9.68600
G1 X286.225 Y169.709 E9.70346
G1 X270.509 Y185.425 E10.57012
G1 X270.069 Y185.355 E10.58751
G1 X286.155 Y169.269 E11.47460
G1 X286.085 Y168.828 E11.49199
G1 X269.628 Y185.285 E12.39952
G1 X269.216 Y185.188 E12.41606
G1 X285.988 Y168.416 E13.34100
G1 X285.880 Y168.013 E13.35724
G1 X268.813 Y185.080 E14.29842
G1 X268.411 Y184.972 E14.31466
G1 X285.772 Y167.611 E15.27208
G1 X285.655 Y167.218 E15.28807
G1 X268.018 Y184.855 E16.26071
G1 X267.649 Y184.714 E16.27611
G1 X285.514 Y166.849 E17.26128
G1 X285.372 Y166.480 E17.27668
G1 X267.280 Y184.572 E18.27437
G1 X266.912 Y184.431 E18.28977
G1 X285.231 Y166.112 E19.29999
G1 X285.070 Y165.763 E19.31498
G1 X266.563 Y184.270 E20.33557
G1 X266.225 Y184.097 E20.35036
G1 X275.004 Y175.318 E20.83449
G1 X274.864 Y175.416 E20.84112
G1 X274.161 Y175.744 E20.87138
G1 X274.034 Y175.778 E20.87651
G1 X265.887 Y183.925 E21.32581
G1 X265.549 Y183.753 E21.34060
G1 X273.352 Y175.950 E21.77091
G1 X272.793 Y175.999 E21.79280
G1 X265.235 Y183.556 E22.20958
G1 X264.926 Y183.356 E22.22396
G1 X272.299 Y175.982 E22.63056
G1 X271.835 Y175.936 E22.64874
G1 X264.617 Y183.155 E23.04681
G1 X264.307 Y182.954 E23.06119
G1 X271.433 Y175.828 E23.45413
G1 X271.042 Y175.709 E23.47006
G1 X264.024 Y182.727 E23.85707
G1 X263.742 Y182.499 E23.87122
G1 X270.694 Y175.547 E24.25459
G1 X270.355 Y175.375 E24.26939
