; generated by Slic3r 1.3.0 on 2020-10-19 at 12:31:08

; external perimeters extrusion width = 0.44mm (1.59mm^3/s)
; perimeters extrusion width = 0.56mm (4.14mm^3/s)
; infill extrusion width = 0.50mm (7.31mm^3/s)
; solid infill extrusion width = 0.56mm (2.07mm^3/s)
; top infill extrusion width = 0.56mm (1.55mm^3/s)

M107
M190 S40 ; set bed temperature and wait for it to be reached
M104 S200 ; set temperature
G1 Z5 F5000 ; lift nozzle
T1
G92 E0
G1 X313 Y175 F600
; Filament gcode

; Filament gcode

M109 S200 ; set temperature and wait for it to be reached
G21 ; set units to millimeters
G90 ; use absolute coordinates
M82 ; use absolute distances for extrusion
G92 E0
G1 Z0.200 F7800.000
G1 E-1.00000 F2400.00000
G92 E0
G1 X245.327 Y145.420 F7800.000
G1 E1.00000 F2400.00000
G1 F1800
G1 X247.083 Y143.920 E1.07541
G1 X249.243 Y143.105 E1.15082
G1 X250.500 Y142.986 E1.19206
G1 X294.500 Y142.986 E2.62912
G1 X296.775 Y143.383 E2.70453
G1 X298.780 Y144.527 E2.77995
G1 X300.280 Y146.283 E2.85536
G1 X301.095 Y148.443 E2.93077
G1 X301.214 Y149.700 E2.97201
G1 X301.214 Y193.700 E4.40907
G1 X300.817 Y195.975 E4.48448
G1 X299.673 Y197.980 E4.55989
G1 X297.917 Y199.480 E4.63531
G1 X295.757 Y200.295 E4.71072
G1 X294.500 Y200.414 E4.75196
G1 X250.500 Y200.414 E6.18902
G1 X248.225 Y200.017 E6.26443
G1 X246.220 Y198.873 E6.33984
G1 X244.720 Y197.117 E6.41525
G1 X243.905 Y194.957 E6.49066
G1 X243.786 Y193.700 E6.53190
G1 X243.786 Y149.700 E7.96896
G1 X244.183 Y147.425 E8.04438
G1 X245.297 Y145.472 E8.11783
G1 X245.681 Y145.554 F7800.000
G1 F1800
G1 X247.423 Y144.137 E8.19119
G1 X250.500 Y143.343 E8.29496
G1 X294.500 Y143.343 E9.73202
G1 X296.711 Y143.740 E9.80539
G1 X298.646 Y144.881 E9.87875
G1 X300.063 Y146.623 E9.95211
G1 X300.857 Y149.700 E10.05589
G1 X300.857 Y193.700 E11.49294
G1 X300.460 Y195.911 E11.56631
G1 X299.319 Y197.846 E11.63967
G1 X297.577 Y199.263 E11.71304
G1 X294.500 Y200.057 E11.81681
G1 X250.500 Y200.057 E13.25387
G1 X248.289 Y199.660 E13.32723
G1 X246.354 Y198.519 E13.40059
G1 X244.937 Y196.777 E13.47396
G1 X244.143 Y193.700 E13.57773
G1 X244.143 Y149.700 E15.01479
G1 X244.540 Y147.489 E15.08815
G1 X245.650 Y145.606 E15.15956
G1 E14.15956 F2400.00000
G92 E0
G1 X248.867 Y148.741 F7800.000
G1 E1.00000 F2400.00000
G1 F1800
G1 X249.741 Y147.867 E1.04520
G1 X255.259 Y147.867 E1.24710
G1 X256.333 Y148.941 E1.30265
G1 X256.333 Y166.459 E1.94358
G1 X255.259 Y167.533 E1.99914
G1 X249.741 Y167.533 E2.20104
G1 X248.667 Y166.459 E2.25659
G1 X248.667 Y148.941 E2.89752
G1 X248.825 Y148.783 E2.90568
G1 X249.150 Y149.023 F7800.000
G1 F1800
G1 X249.906 Y148.267 E2.94482
G1 X255.094 Y148.267 E3.13459
G1 X255.933 Y149.106 E3.17802
G1 X255.933 Y166.294 E3.80683
G1 X255.094 Y167.133 E3.85026
G1 X249.906 Y167.133 E4.04004
G1 X249.067 Y166.294 E4.08347
G1 X249.067 Y149.106 E4.71228
G1 X249.108 Y149.066 E4.71438
G1 X249.467 Y149.272 F7800.000
G1 F1800
G1 X250.072 Y148.667 E4.74568
G1 X254.928 Y148.667 E4.92333
G1 X255.533 Y149.272 E4.95464
G1 X255.533 Y166.128 E5.57133
G1 X254.928 Y166.733 E5.60263
G1 X250.072 Y166.733 E5.78028
G1 X249.467 Y166.128 E5.81159
G1 X249.467 Y149.332 E6.42608
G1 X249.867 Y149.438 F7800.000
G1 F1800
G1 X250.238 Y149.067 E6.44526
G1 X254.762 Y149.067 E6.61079
G1 X255.133 Y149.438 E6.62997
G1 X255.133 Y165.962 E7.23454
G1 X254.762 Y166.333 E7.25372
G1 X250.238 Y166.333 E7.41925
G1 X249.867 Y165.962 E7.43843
G1 X249.867 Y149.498 E8.04080
G1 X250.267 Y149.604 F7800.000
G1 F1800
G1 X250.404 Y149.467 E8.04786
G1 X254.596 Y149.467 E8.20126
G1 X254.733 Y149.604 E8.20832
G1 X254.733 Y165.796 E8.80076
G1 X254.596 Y165.933 E8.80782
G1 X250.404 Y165.933 E8.96122
G1 X250.267 Y165.796 E8.96828
G1 X250.267 Y149.664 E9.55852
G1 E8.55852 F2400.00000
G92 E0
G1 X250.267 Y175.867 F7800.000
G1 E1.00000 F2400.00000
G1 F1800
G1 X255.259 Y175.867 E1.18264
G1 X256.333 Y176.941 E1.23820
G1 X256.333 Y194.459 E1.87913
G1 X255.259 Y195.533 E1.93468
G1 X249.741 Y195.533 E2.13658
G1 X248.667 Y194.459 E2.19214
G1 X248.667 Y176.941 E2.83307
G1 X249.741 Y175.867 E2.88862
G1 X250.207 Y175.867 E2.90568
G1 X250.267 Y176.267 F7800.000
G1 F1800
G1 X255.094 Y176.267 E3.08226
G1 X255.933 Y177.106 E3.12569
G1 X255.933 Y194.294 E3.75450
G1 X255.094 Y195.133 E3.79793
G1 X249.906 Y195.133 E3.98771
G1 X249.067 Y194.294 E4.03114
G1 X249.067 Y177.106 E4.65995
G1 X249.906 Y176.267 E4.70338
G1 X250.207 Y176.267 E4.71438
G1 X250.267 Y176.667 F7800.000
G1 F1800
G1 X254.928 Y176.667 E4.88490
G1 X255.533 Y177.272 E4.91620
G1 X255.533 Y194.128 E5.53289
G1 X254.928 Y194.733 E5.56419
G1 X250.072 Y194.733 E5.74185
G1 X249.467 Y194.128 E5.77315
G1 X249.467 Y177.272 E6.38984
G1 X250.072 Y176.667 E6.42114
G1 X250.207 Y176.667 E6.42608
G1 X250.267 Y177.067 F7800.000
G1 F1800
G1 X254.762 Y177.067 E6.59054
G1 X255.133 Y177.438 E6.60972
G1 X255.133 Y193.962 E7.21428
G1 X254.762 Y194.333 E7.23347
G1 X250.238 Y194.333 E7.39899
G1 X249.867 Y193.962 E7.41818
G1 X249.867 Y177.438 E8.02274
G1 X250.216 Y177.089 E8.04080
G1 X250.267 Y177.604 F7800.000
G1 F1800
G1 X250.404 Y177.467 E8.04786
G1 X254.596 Y177.467 E8.20126
G1 X254.733 Y177.604 E8.20832
G1 X254.733 Y193.796 E8.80076
G1 X254.596 Y193.933 E8.80782
G1 X250.404 Y193.933 E8.96122
G1 X250.267 Y193.796 E8.96828
G1 X250.267 Y177.664 E9.55852
G1 E8.55852 F2400.00000
G92 E0
G1 X260.667 Y177.604 F7800.000
G1 E1.00000 F2400.00000
G1 F1800
G1 X260.667 Y176.941 E1.02425
G1 X261.741 Y175.867 E1.07980
G1 X267.259 Y175.867 E1.28170
G1 X268.333 Y176.941 E1.33725
G1 X268.333 Y182.459 E1.53915
G1 X267.259 Y183.533 E1.59471
G1 X261.741 Y183.533 E1.79660
G1 X260.667 Y182.459 E1.85216
G1 X260.667 Y177.664 E2.02761
G1 X261.067 Y177.604 F7800.000
G1 F1800
G1 X261.067 Y177.106 E2.04580
G1 X261.906 Y176.267 E2.08923
G1 X267.094 Y176.267 E2.27901
G1 X267.933 Y177.106 E2.32244
G1 X267.933 Y182.294 E2.51221
G1 X267.094 Y183.133 E2.55564
G1 X261.906 Y183.133 E2.74542
G1 X261.067 Y182.294 E2.78885
G1 X261.067 Y177.664 E2.95824
G1 X261.467 Y177.604 F7800.000
G1 F1800
G1 X261.467 Y177.272 E2.97036
G1 X262.072 Y176.667 E3.00167
G1 X266.928 Y176.667 E3.17932
G1 X267.533 Y177.272 E3.21063
G1 X267.533 Y182.128 E3.38828
G1 X266.928 Y182.733 E3.41959
G1 X262.072 Y182.733 E3.59724
G1 X261.467 Y182.128 E3.62854
G1 X261.467 Y177.664 E3.79188
G1 X261.867 Y177.604 F7800.000
G1 F1800
G1 X261.867 Y177.438 E3.79794
G1 X262.238 Y177.067 E3.81712
G1 X266.762 Y177.067 E3.98265
G1 X267.133 Y177.438 E4.00183
G1 X267.133 Y181.962 E4.16736
G1 X266.762 Y182.333 E4.18654
G1 X262.238 Y182.333 E4.35207
G1 X261.867 Y181.962 E4.37125
G1 X261.867 Y177.664 E4.52853
G1 X262.404 Y177.467 F7800.000
G1 F1800
G1 X266.596 Y177.467 E4.68193
G1 X266.733 Y177.604 E4.68899
G1 X266.733 Y181.796 E4.84239
G1 X266.596 Y181.933 E4.84945
G1 X262.404 Y181.933 E5.00286
G1 X262.267 Y181.796 E5.00992
G1 X262.267 Y177.604 E5.16332
G1 X262.361 Y177.510 E5.16819
G1 E4.16819 F2400.00000
G92 E0
G1 X262.404 Y167.533 F7800.000
G1 E1.00000 F2400.00000
G1 F1800
G1 X261.741 Y167.533 E1.02425
G1 X260.667 Y166.459 E1.07980
G1 X260.667 Y160.941 E1.28170
G1 X261.741 Y159.867 E1.33725
G1 X267.259 Y159.867 E1.53915
G1 X268.333 Y160.941 E1.59471
G1 X268.333 Y166.459 E1.79660
G1 X267.259 Y167.533 E1.85216
G1 X262.464 Y167.533 E2.02761
G1 X262.404 Y167.133 F7800.000
G1 F1800
G1 X261.906 Y167.133 E2.04580
G1 X261.067 Y166.294 E2.08923
G1 X261.067 Y161.106 E2.27901
G1 X261.906 Y160.267 E2.32244
G1 X267.094 Y160.267 E2.51221
G1 X267.933 Y161.106 E2.55564
G1 X267.933 Y166.294 E2.74542
G1 X267.094 Y167.133 E2.78885
G1 X262.464 Y167.133 E2.95824
G1 X262.404 Y166.733 F7800.000
G1 F1800
G1 X262.072 Y166.733 E2.97036
G1 X261.467 Y166.128 E3.00167
G1 X261.467 Y161.272 E3.17932
G1 X262.072 Y160.667 E3.21063
G1 X266.928 Y160.667 E3.38828
G1 X267.533 Y161.272 E3.41959
G1 X267.533 Y166.128 E3.59724
G1 X266.928 Y166.733 E3.62854
G1 X262.464 Y166.733 E3.79188
G1 X262.404 Y166.333 F7800.000
G1 F1800
G1 X262.238 Y166.333 E3.79794
G1 X261.867 Y165.962 E3.81712
G1 X261.867 Y161.438 E3.98265
G1 X262.238 Y161.067 E4.00183
G1 X266.762 Y161.067 E4.16736
G1 X267.133 Y161.438 E4.18654
G1 X267.133 Y165.962 E4.35207
G1 X266.762 Y166.333 E4.37125
G1 X262.464 Y166.333 E4.52853
G1 X262.267 Y165.796 F7800.000
G1 F1800
G1 X262.267 Y161.604 E4.68193
G1 X262.404 Y161.467 E4.68899
G1 X266.596 Y161.467 E4.84239
G1 X266.733 Y161.604 E4.84945
G1 X266.733 Y165.796 E5.00286
G1 X266.596 Y165.933 E5.00992
G1 X262.404 Y165.933 E5.16332
G1 X262.310 Y165.839 E5.16819
G1 E4.16819 F2400.00000
G92 E0
G1 X288.667 Y165.796 F7800.000
G1 E1.00000 F2400.00000
G1 F1800
G1 X288.667 Y148.941 E1.61669
G1 X289.741 Y147.867 E1.67224
G1 X295.259 Y147.867 E1.87414
G1 X296.333 Y148.941 E1.92969
G1 X296.333 Y166.459 E2.57062
G1 X295.259 Y167.533 E2.62618
G1 X289.741 Y167.533 E2.82808
G1 X288.667 Y166.459 E2.88363
G1 X288.667 Y165.856 E2.90568
G1 X289.067 Y165.796 F7800.000
G1 F1800
G1 X289.067 Y149.106 E3.51631
G1 X289.906 Y148.267 E3.55974
G1 X295.094 Y148.267 E3.74951
G1 X295.933 Y149.106 E3.79294
G1 X295.933 Y166.294 E4.42175
G1 X295.094 Y167.133 E4.46518
G1 X289.906 Y167.133 E4.65495
G1 X289.067 Y166.294 E4.69839
G1 X289.067 Y165.856 E4.71438
G1 X289.467 Y165.796 F7800.000
G1 F1800
G1 X289.467 Y149.272 E5.31894
G1 X290.072 Y148.667 E5.35024
G1 X294.928 Y148.667 E5.52790
G1 X295.533 Y149.272 E5.55920
G1 X295.533 Y166.128 E6.17589
G1 X294.928 Y166.733 E6.20719
G1 X290.072 Y166.733 E6.38485
G1 X289.467 Y166.128 E6.41615
G1 X289.467 Y165.856 E6.42608
G1 X289.867 Y165.796 F7800.000
G1 F1800
G1 X289.867 Y149.438 E7.02458
G1 X290.238 Y149.067 E7.04376
G1 X294.762 Y149.067 E7.20929
G1 X295.133 Y149.438 E7.22847
G1 X295.133 Y165.962 E7.83304
G1 X294.762 Y166.333 E7.85222
G1 X290.238 Y166.333 E8.01775
G1 X289.867 Y165.962 E8.03693
G1 X289.867 Y165.856 E8.04080
G1 X290.404 Y165.933 F7800.000
G1 F1800
G1 X290.267 Y165.796 E8.04786
G1 X290.267 Y149.604 E8.64029
G1 X290.404 Y149.467 E8.64735
G1 X294.596 Y149.467 E8.80076
G1 X294.733 Y149.604 E8.80782
G1 X294.733 Y165.796 E9.40026
G1 X294.596 Y165.933 E9.40731
G1 X290.464 Y165.933 E9.55852
G1 E8.55852 F2400.00000
G92 E0
G1 X283.259 Y155.533 F7800.000
G1 E1.00000 F2400.00000
G1 F1800
G1 X261.741 Y155.533 E1.78728
G1 X260.667 Y154.459 E1.84283
G1 X260.667 Y148.941 E2.04473
G1 X261.741 Y147.867 E2.10028
G1 X283.259 Y147.867 E2.88756
G1 X284.333 Y148.941 E2.94311
G1 X284.333 Y154.459 E3.14501
G1 X283.302 Y155.490 E3.19837
G1 X283.094 Y155.133 F7800.000
G1 F1800
G1 X261.906 Y155.133 E3.97352
G1 X261.067 Y154.294 E4.01695
G1 X261.067 Y149.106 E4.20673
G1 X261.906 Y148.267 E4.25016
G1 X283.094 Y148.267 E5.02531
G1 X283.933 Y149.106 E5.06874
G1 X283.933 Y154.294 E5.25852
G1 X283.136 Y155.090 E5.29975
G1 X282.928 Y154.733 F7800.000
G1 F1800
G1 X262.072 Y154.733 E6.06278
G1 X261.467 Y154.128 E6.09409
G1 X261.467 Y149.272 E6.27174
G1 X262.072 Y148.667 E6.30305
G1 X282.928 Y148.667 E7.06608
G1 X283.533 Y149.272 E7.09738
G1 X283.533 Y154.128 E7.27504
G1 X282.970 Y154.690 E7.30415
G1 X282.762 Y154.333 F7800.000
G1 F1800
G1 X262.238 Y154.333 E8.05505
G1 X261.867 Y153.962 E8.07424
G1 X261.867 Y149.438 E8.23976
G1 X262.238 Y149.067 E8.25895
G1 X282.762 Y149.067 E9.00985
G1 X283.133 Y149.438 E9.02904
G1 X283.133 Y153.962 E9.19457
G1 X282.805 Y154.290 E9.21155
G1 X282.596 Y153.933 F7800.000
G1 F1800
G1 X262.404 Y153.933 E9.95034
G1 X262.267 Y153.796 E9.95740
G1 X262.267 Y149.604 E10.11080
G1 X262.404 Y149.467 E10.11786
G1 X282.596 Y149.467 E10.85664
G1 X282.733 Y149.604 E10.86370
G1 X282.733 Y153.796 E11.01711
G1 X282.639 Y153.890 E11.02197
G1 E10.02197 F2400.00000
G92 E0
G1 X282.596 Y159.867 F7800.000
G1 E1.00000 F2400.00000
G1 F1800
G1 X283.259 Y159.867 E1.02425
G1 X284.333 Y160.941 E1.07980
G1 X284.333 Y166.459 E1.28170
G1 X283.259 Y167.533 E1.33725
G1 X277.741 Y167.533 E1.53915
G1 X276.667 Y166.459 E1.59471
G1 X276.667 Y160.941 E1.79660
G1 X277.741 Y159.867 E1.85216
G1 X282.536 Y159.867 E2.02761
G1 X282.596 Y160.267 F7800.000
G1 F1800
G1 X283.094 Y160.267 E2.04580
G1 X283.933 Y161.106 E2.08923
G1 X283.933 Y166.294 E2.27901
G1 X283.094 Y167.133 E2.32244
G1 X277.906 Y167.133 E2.51221
G1 X277.067 Y166.294 E2.55564
G1 X277.067 Y161.106 E2.74542
G1 X277.906 Y160.267 E2.78885
G1 X282.536 Y160.267 E2.95824
G1 X282.596 Y160.667 F7800.000
G1 F1800
G1 X282.928 Y160.667 E2.97036
G1 X283.533 Y161.272 E3.00167
G1 X283.533 Y166.128 E3.17932
G1 X282.928 Y166.733 E3.21063
G1 X278.072 Y166.733 E3.38828
G1 X277.467 Y166.128 E3.41959
G1 X277.467 Y161.272 E3.59724
G1 X278.072 Y160.667 E3.62854
G1 X282.536 Y160.667 E3.79188
G1 X282.596 Y161.067 F7800.000
G1 F1800
G1 X282.762 Y161.067 E3.79794
G1 X283.133 Y161.438 E3.81712
G1 X283.133 Y165.962 E3.98265
G1 X282.762 Y166.333 E4.00183
G1 X278.238 Y166.333 E4.16736
G1 X277.867 Y165.962 E4.18654
G1 X277.867 Y161.438 E4.35207
G1 X278.238 Y161.067 E4.37125
G1 X282.536 Y161.067 E4.52853
G1 X282.733 Y161.604 F7800.000
G1 F1800
G1 X282.733 Y165.796 E4.68193
G1 X282.596 Y165.933 E4.68899
G1 X278.404 Y165.933 E4.84239
G1 X278.267 Y165.796 E4.84945
G1 X278.267 Y161.604 E5.00286
G1 X278.404 Y161.467 E5.00992
G1 X282.596 Y161.467 E5.16332
G1 X282.690 Y161.561 E5.16819
G1 E4.16819 F2400.00000
G92 E0
G1 X289.741 Y175.867 F7800.000
G1 E1.00000 F2400.00000
G1 F1800
G1 X295.259 Y175.867 E1.20190
G1 X296.333 Y176.941 E1.25745
G1 X296.333 Y194.459 E1.89838
G1 X295.259 Y195.533 E1.95394
G1 X289.741 Y195.533 E2.15584
G1 X288.667 Y194.459 E2.21139
G1 X288.667 Y176.941 E2.85232
G1 X289.698 Y175.910 E2.90568
G1 X289.906 Y176.267 F7800.000
G1 F1800
G1 X295.094 Y176.267 E3.09546
G1 X295.933 Y177.106 E3.13889
G1 X295.933 Y194.294 E3.76770
G1 X295.094 Y195.133 E3.81113
G1 X289.906 Y195.133 E4.00090
G1 X289.067 Y194.294 E4.04433
G1 X289.067 Y177.106 E4.67314
G1 X289.864 Y176.310 E4.71438
G1 X290.072 Y176.667 F7800.000
G1 F1800
G1 X294.928 Y176.667 E4.89203
G1 X295.533 Y177.272 E4.92333
G1 X295.533 Y194.128 E5.54002
G1 X294.928 Y194.733 E5.57133
G1 X290.072 Y194.733 E5.74898
G1 X289.467 Y194.128 E5.78028
G1 X289.467 Y177.272 E6.39697
G1 X290.030 Y176.710 E6.42608
G1 X290.238 Y177.067 F7800.000
G1 F1800
G1 X294.762 Y177.067 E6.59161
G1 X295.133 Y177.438 E6.61079
G1 X295.133 Y193.962 E7.21535
G1 X294.762 Y194.333 E7.23454
G1 X290.238 Y194.333 E7.40006
G1 X289.867 Y193.962 E7.41925
G1 X289.867 Y177.438 E8.02381
G1 X290.195 Y177.110 E8.04080
G1 X290.267 Y177.604 F7800.000
G1 F1800
G1 X290.404 Y177.467 E8.04786
G1 X294.596 Y177.467 E8.20126
G1 X294.733 Y177.604 E8.20832
G1 X294.733 Y193.796 E8.80076
G1 X294.596 Y193.933 E8.80782
G1 X290.404 Y193.933 E8.96122
G1 X290.267 Y193.796 E8.96828
G1 X290.267 Y177.664 E9.55852
G1 E8.55852 F2400.00000
G92 E0
G1 X284.333 Y177.604 F7800.000
G1 E1.00000 F2400.00000
G1 F1800
G1 X284.333 Y182.459 E1.17765
G1 X283.259 Y183.533 E1.23321
G1 X277.741 Y183.533 E1.43510
G1 X276.667 Y182.459 E1.49066
G1 X276.667 Y176.941 E1.69256
G1 X277.741 Y175.867 E1.74811
G1 X283.259 Y175.867 E1.95001
G1 X284.333 Y176.941 E2.00556
G1 X284.333 Y177.544 E2.02761
G1 X283.933 Y177.604 F7800.000
G1 F1800
G1 X283.933 Y182.294 E2.19920
G1 X283.094 Y183.133 E2.24263
G1 X277.906 Y183.133 E2.43241
G1 X277.067 Y182.294 E2.47584
G1 X277.067 Y177.106 E2.66561
G1 X277.906 Y176.267 E2.70904
G1 X283.094 Y176.267 E2.89882
G1 X283.933 Y177.106 E2.94225
G1 X283.933 Y177.544 E2.95824
G1 X283.533 Y177.604 F7800.000
G1 F1800
G1 X283.533 Y182.128 E3.12377
G1 X282.928 Y182.733 E3.15507
G1 X278.072 Y182.733 E3.33273
G1 X277.467 Y182.128 E3.36403
G1 X277.467 Y177.272 E3.54168
G1 X278.072 Y176.667 E3.57299
G1 X282.928 Y176.667 E3.75064
G1 X283.533 Y177.272 E3.78195
G1 X283.533 Y177.544 E3.79188
G1 X283.133 Y177.604 F7800.000
G1 F1800
G1 X283.133 Y181.962 E3.95134
G1 X282.762 Y182.333 E3.97053
G1 X278.238 Y182.333 E4.13605
G1 X277.867 Y181.962 E4.15524
G1 X277.867 Y177.438 E4.32077
G1 X278.238 Y177.067 E4.33995
G1 X282.762 Y177.067 E4.50548
G1 X283.133 Y177.438 E4.52466
G1 X283.133 Y177.544 E4.52853
G1 X282.733 Y177.604 F7800.000
G1 F1800
G1 X282.733 Y181.796 E4.68193
G1 X282.596 Y181.933 E4.68899
G1 X278.404 Y181.933 E4.84239
G1 X278.267 Y181.796 E4.84945
G1 X278.267 Y177.604 E5.00286
G1 X278.404 Y177.467 E5.00992
G1 X282.596 Y177.467 E5.16332
