; generated by Slic3r 1.3.0-dev on 2020-11-10 at 11:33:42

; external perimeters extrusion width = 0.40mm
; perimeters extrusion width = 0.67mm
; infill extrusion width = 0.67mm
; solid infill extrusion width = 0.67mm
; top infill extrusion width = 0.67mm
; support material extrusion width = 0.40mm

M107
M190 S60 ; set bed temperature and wait for it to be reached
M104 S191 ; set temperature
G28 ; home all axes
G1 Z0 F5000 ; lift nozzle
G92;  switch to relative mode
G1 E+50 F300; retract 70 millimeter
G91; switch back to absolu
M109 S191 ; set temperature and wait for it to be reached
G21 ; set units to millimeters
G90 ; use absolute coordinates
M82 ; use absolute distances for extrusion
G92 E0
G1 E-1.00000 F1800.00000
G92 E0
G1 Z0.300 F3600.000
G1 X61.567 Y49.987 F3600.000
G1 E1.00000 F1800.00000
G1 F720
G1 X62.390 Y49.163 E1.02298
G1 X63.271 Y48.531 E1.04436
G1 X64.239 Y48.045 E1.06573
G1 X65.192 Y47.735 E1.08550
G1 X66.261 Y47.559 E1.10687
G1 X66.844 Y47.533 E1.11838
G1 X68.901 Y47.534 E1.15895
G1 X122.151 Y48.008 E2.20946
G1 X122.594 Y48.028 E2.21823
G1 X123.745 Y48.210 E2.24121
G1 X124.774 Y48.551 E2.26259
G1 X125.736 Y49.048 E2.28396
G1 X126.547 Y49.637 E2.30373
G1 X127.318 Y50.399 E2.32510
G1 X127.960 Y51.272 E2.34648
G1 X128.457 Y52.234 E2.36786
G1 X128.798 Y53.263 E2.38923
G1 X128.857 Y53.520 E2.39443
G1 X139.920 Y106.166 E3.45566
G1 X140.037 Y106.978 E3.47185
G1 X140.063 Y107.560 E3.48335
G1 X140.063 Y125.560 E3.83844
G1 X140.037 Y126.143 E3.84994
G1 X139.861 Y127.212 E3.87132
G1 X139.551 Y128.165 E3.89108
G1 X139.065 Y129.133 E3.91245
G1 X138.434 Y130.013 E3.93382
G1 X137.672 Y130.784 E3.95520
G1 X136.729 Y131.469 E3.97819
G1 X135.761 Y131.955 E3.99956
G1 X134.728 Y132.284 E4.02094
G1 X133.739 Y132.441 E4.04070
G1 X133.156 Y132.467 E4.05221
G1 X127.156 Y132.467 E4.17057
G1 X77.098 Y130.512 E5.15883
G1 X76.765 Y130.491 E5.16541
G1 X75.776 Y130.334 E5.18517
G1 X74.668 Y129.974 E5.20815
G1 X73.705 Y129.476 E5.22953
G1 X72.832 Y128.834 E5.25091
G1 X72.123 Y128.126 E5.27068
G1 X71.482 Y127.253 E5.29204
G1 X70.984 Y126.291 E5.31342
G1 X70.624 Y125.183 E5.33641
G1 X60.085 Y75.855 E6.33145
G1 X59.963 Y75.022 E6.34806
G1 X59.937 Y74.442 E6.35952
G1 X59.932 Y58.792 E6.66825
G1 X59.937 Y54.431 E6.75428
G1 X59.957 Y53.939 E6.76399
G1 X60.120 Y52.868 E6.78537
G1 X60.449 Y51.835 E6.80674
G1 X60.935 Y50.867 E6.82812
G1 X61.531 Y50.035 E6.84831
G1 E5.84831 F1800.00000
G92 E0
G1 X114.293 Y111.667 F3600.000
G1 E1.00000 F1800.00000
G1 F360
G1 X114.083 Y111.927 E1.00661
G1 X113.831 Y112.149 E1.01322
G1 X113.546 Y112.324 E1.01983
G1 X113.235 Y112.449 E1.02644
G1 X112.907 Y112.520 E1.03305
G1 X112.572 Y112.534 E1.03967
G1 X112.240 Y112.492 E1.04628
G1 X111.942 Y112.400 E1.05242
G1 X111.621 Y112.243 E1.05947
G1 X111.351 Y112.043 E1.06610
G1 X111.119 Y111.801 E1.07272
G1 X110.931 Y111.524 E1.07933
G1 X110.793 Y111.218 E1.08594
G1 X110.709 Y110.894 E1.09255
G1 X110.680 Y110.560 E1.09916
G1 X110.709 Y110.226 E1.10577
G1 X110.793 Y109.902 E1.11238
G1 X110.931 Y109.597 E1.11899
G1 X111.119 Y109.319 E1.12560
G1 X111.351 Y109.077 E1.13221
G1 X111.620 Y108.878 E1.13882
G1 X111.920 Y108.727 E1.14544
G1 X112.240 Y108.629 E1.15205
G1 X112.549 Y108.589 E1.15819
G1 X112.906 Y108.600 E1.16524
G1 X113.235 Y108.671 E1.17187
G1 X113.546 Y108.796 E1.17848
G1 X113.831 Y108.972 E1.18510
G1 X114.083 Y109.193 E1.19171
G1 X114.293 Y109.454 E1.19832
G1 X114.457 Y109.746 E1.20493
G1 X114.568 Y110.062 E1.21154
G1 X114.625 Y110.393 E1.21815
G1 X114.625 Y110.728 E1.22476
G1 X114.568 Y111.058 E1.23137
G1 X114.457 Y111.374 E1.23798
G1 X114.322 Y111.614 E1.24341
G1 X114.293 Y111.667 F3600.000
G1 E0.24341 F1800.00000
G92 E0
G1 X110.439 Y112.207 F3600.000
G1 E1.00000 F1800.00000
G1 F360
G1 X110.839 Y112.624 E1.01141
G1 X111.219 Y112.905 E1.02072
G1 X111.658 Y113.120 E1.03036
G1 X112.077 Y113.248 E1.03900
G1 X112.540 Y113.308 E1.04820
G1 X113.006 Y113.288 E1.05740
G1 X113.461 Y113.189 E1.06661
G1 X113.894 Y113.016 E1.07581
G1 X114.291 Y112.771 E1.08501
G1 X114.641 Y112.463 E1.09421
G1 X114.934 Y112.100 E1.10341
G1 X115.162 Y111.693 E1.11261
G1 X115.317 Y111.253 E1.12181
G1 X115.396 Y110.793 E1.13101
G1 X115.396 Y110.327 E1.14021
G1 X115.317 Y109.867 E1.14941
G1 X115.162 Y109.427 E1.15861
G1 X114.934 Y109.020 E1.16781
G1 X114.641 Y108.657 E1.17702
G1 X114.291 Y108.349 E1.18622
G1 X113.894 Y108.105 E1.19542
G1 X113.461 Y107.931 E1.20462
G1 X113.000 Y107.831 E1.21394
G1 X112.512 Y107.816 E1.22357
G1 X112.077 Y107.872 E1.23221
G1 X111.631 Y108.009 E1.24142
G1 X111.214 Y108.219 E1.25062
G1 X110.839 Y108.496 E1.25982
G1 X110.439 Y108.913 E1.27122
G1 X110.108 Y107.949 E1.29133
G1 X109.598 Y107.005 E1.31251
G1 X108.938 Y106.158 E1.33368
G1 X108.144 Y105.427 E1.35497
G1 X107.182 Y104.814 E1.37748
G1 X106.267 Y104.413 E1.39720
G1 X105.773 Y104.288 E1.40725
G1 X106.141 Y103.963 E1.41695
G1 X106.434 Y103.600 E1.42615
G1 X106.662 Y103.193 E1.43535
G1 X106.817 Y102.753 E1.44455
G1 X106.896 Y102.293 E1.45375
G1 X106.896 Y101.827 E1.46295
G1 X106.828 Y101.427 E1.47096
G1 X107.206 Y101.538 E1.47875
G1 X107.931 Y101.816 E1.49405
G1 X108.630 Y102.153 E1.50936
G1 X109.300 Y102.545 E1.52467
G1 X109.935 Y102.990 E1.53998
G1 X110.532 Y103.486 E1.55529
G1 X111.087 Y104.028 E1.57059
G1 X111.596 Y104.614 E1.58590
G1 X112.055 Y105.239 E1.60121
G1 X112.464 Y105.904 E1.61661
G1 X112.999 Y106.932 E1.63947
G1 X113.261 Y107.260 E1.64775
G1 X113.561 Y107.530 E1.65571
G1 X113.901 Y107.748 E1.66367
G1 X114.271 Y107.908 E1.67163
G1 X114.663 Y108.006 E1.67959
G1 X115.024 Y108.035 E1.68675
G1 X132.681 Y108.035 E2.03507
G1 X132.681 Y125.085 E2.37140
G1 X127.632 Y125.085 E2.47101
G1 X127.632 Y119.532 E2.58055
G1 X127.592 Y118.835 E2.59432
G1 X127.471 Y118.119 E2.60865
G1 X127.270 Y117.421 E2.62298
G1 X126.992 Y116.750 E2.63731
G1 X126.640 Y116.114 E2.65163
G1 X126.220 Y115.522 E2.66596
G1 X125.736 Y114.980 E2.68029
G1 X125.195 Y114.496 E2.69462
G1 X124.602 Y114.076 E2.70895
G1 X123.966 Y113.725 E2.72328
G1 X123.295 Y113.447 E2.73760
G1 X122.597 Y113.246 E2.75193
G1 X121.881 Y113.124 E2.76626
G1 X121.184 Y113.085 E2.78004
G1 X115.024 Y113.085 E2.90155
G1 X114.663 Y113.114 E2.90871
G1 X114.271 Y113.212 E2.91667
G1 X113.901 Y113.372 E2.92463
G1 X113.561 Y113.590 E2.93260
G1 X113.261 Y113.860 E2.94056
G1 X112.999 Y114.188 E2.94883
G1 X112.464 Y115.216 E2.97170
G1 X112.055 Y115.881 E2.98710
G1 X111.596 Y116.506 E3.00240
G1 X111.087 Y117.092 E3.01771
G1 X110.532 Y117.635 E3.03302
G1 X109.935 Y118.130 E3.04833
G1 X109.300 Y118.576 E3.06364
G1 X108.630 Y118.968 E3.07894
G1 X107.931 Y119.304 E3.09425
G1 X107.206 Y119.582 E3.10956
G1 X106.828 Y119.693 E3.11735
G1 X106.896 Y119.293 E3.12535
G1 X106.896 Y118.827 E3.13456
G1 X106.817 Y118.367 E3.14376
G1 X106.662 Y117.927 E3.15296
G1 X106.434 Y117.520 E3.16216
G1 X106.141 Y117.157 E3.17136
G1 X105.773 Y116.833 E3.18105
G1 X106.267 Y116.708 E3.19111
G1 X107.250 Y116.276 E3.21228
G1 X108.148 Y115.689 E3.23346
G1 X108.938 Y114.962 E3.25464
G1 X109.598 Y114.115 E3.27581
G1 X110.108 Y113.171 E3.29699
G1 X110.420 Y112.264 E3.31591
G1 X110.216 Y111.258 F3600.000
G1 F360
G1 X110.403 Y111.250 E3.31961
G1 X110.428 Y111.347 E3.32160
G1 X110.593 Y111.712 E3.32951
G1 X110.818 Y112.045 E3.33741
G1 X111.095 Y112.334 E3.34532
G1 X111.420 Y112.574 E3.35330
G1 X111.800 Y112.760 E3.36164
G1 X112.158 Y112.870 E3.36903
G1 X112.556 Y112.921 E3.37694
G1 X112.956 Y112.904 E3.38484
G1 X113.348 Y112.819 E3.39275
G1 X113.720 Y112.670 E3.40065
G1 X114.061 Y112.460 E3.40856
G1 X114.362 Y112.195 E3.41647
G1 X114.614 Y111.883 E3.42437
G1 X114.809 Y111.533 E3.43228
G1 X114.943 Y111.156 E3.44018
G1 X115.011 Y110.761 E3.44809
G1 X115.011 Y110.360 E3.45600
G1 X114.943 Y109.965 E3.46390
G1 X114.809 Y109.587 E3.47181
G1 X114.614 Y109.237 E3.47971
G1 X114.362 Y108.925 E3.48762
G1 X114.061 Y108.660 E3.49553
G1 X113.720 Y108.450 E3.50343
G1 X113.348 Y108.301 E3.51134
G1 X112.953 Y108.216 E3.51932
G1 X112.530 Y108.203 E3.52765
G1 X112.158 Y108.250 E3.53505
G1 X111.775 Y108.368 E3.54296
G1 X111.417 Y108.548 E3.55086
G1 X111.095 Y108.786 E3.55877
G1 X110.818 Y109.076 E3.56667
G1 X110.593 Y109.408 E3.57458
G1 X110.428 Y109.773 E3.58249
G1 X110.403 Y109.871 E3.58448
G1 X110.216 Y109.862 E3.58817
G1 X110.082 Y109.060 E3.60423
G1 X109.754 Y108.105 E3.62414
G1 X109.274 Y107.217 E3.64406
G1 X108.653 Y106.420 E3.66398
G1 X107.908 Y105.734 E3.68396
G1 X107.000 Y105.155 E3.70520
G1 X106.141 Y104.779 E3.72371
G1 X105.162 Y104.531 E3.74362
G1 X104.862 Y104.506 E3.74957
G1 X104.834 Y104.325 E3.75318
G1 X105.220 Y104.170 E3.76138
G1 X105.561 Y103.960 E3.76929
G1 X105.862 Y103.695 E3.77719
G1 X106.114 Y103.383 E3.78510
G1 X106.309 Y103.033 E3.79301
G1 X106.443 Y102.656 E3.80091
G1 X106.511 Y102.261 E3.80882
G1 X106.511 Y101.860 E3.81672
G1 X106.443 Y101.465 E3.82463
G1 X106.309 Y101.087 E3.83254
G1 X106.188 Y100.869 E3.83746
G1 X106.555 Y100.945 E3.84486
G1 X107.330 Y101.172 E3.86079
G1 X108.084 Y101.462 E3.87671
G1 X108.811 Y101.812 E3.89264
G1 X109.508 Y102.220 E3.90857
G1 X110.169 Y102.683 E3.92450
G1 X110.791 Y103.199 E3.94043
G1 X111.368 Y103.763 E3.95636
G1 X111.897 Y104.373 E3.97228
G1 X112.375 Y105.024 E3.98821
G1 X112.800 Y105.714 E4.00420
G1 X113.324 Y106.721 E4.02659
G1 X113.543 Y106.995 E4.03351
G1 X113.796 Y107.223 E4.04022
G1 X114.082 Y107.407 E4.04694
G1 X114.395 Y107.542 E4.05366
G1 X114.725 Y107.624 E4.06038
G1 X115.040 Y107.650 E4.06661
G1 X133.067 Y107.650 E4.42222
G1 X133.067 Y125.470 E4.77377
G1 X127.246 Y125.470 E4.88859
G1 X127.246 Y119.543 E5.00552
G1 X127.209 Y118.878 E5.01866
G1 X127.094 Y118.205 E5.03213
G1 X126.905 Y117.549 E5.04560
G1 X126.644 Y116.918 E5.05908
G1 X126.313 Y116.320 E5.07255
G1 X125.918 Y115.763 E5.08602
G1 X125.463 Y115.253 E5.09950
G1 X124.954 Y114.798 E5.11297
G1 X124.397 Y114.403 E5.12645
G1 X123.799 Y114.073 E5.13992
G1 X123.168 Y113.811 E5.15339
G1 X122.512 Y113.622 E5.16687
G1 X121.838 Y113.508 E5.18034
G1 X121.173 Y113.470 E5.19348
G1 X115.040 Y113.470 E5.31447
G1 X114.725 Y113.496 E5.32070
G1 X114.395 Y113.579 E5.32741
G1 X114.082 Y113.714 E5.33413
G1 X113.796 Y113.898 E5.34085
G1 X113.543 Y114.126 E5.34757
G1 X113.324 Y114.399 E5.35448
G1 X112.800 Y115.407 E5.37688
G1 X112.375 Y116.096 E5.39286
G1 X111.897 Y116.747 E5.40879
G1 X111.368 Y117.357 E5.42472
G1 X110.791 Y117.921 E5.44065
G1 X110.169 Y118.437 E5.45658
G1 X109.508 Y118.900 E5.47251
G1 X108.811 Y119.308 E5.48843
G1 X108.084 Y119.658 E5.50436
G1 X107.330 Y119.948 E5.52029
G1 X106.555 Y120.175 E5.53622
G1 X106.186 Y120.251 E5.54365
G1 X106.318 Y120.009 E5.54909
G1 X106.443 Y119.656 E5.55649
G1 X106.511 Y119.261 E5.56439
G1 X106.511 Y118.860 E5.57230
G1 X106.443 Y118.465 E5.58021
G1 X106.309 Y118.087 E5.58811
G1 X106.114 Y117.737 E5.59602
G1 X105.862 Y117.425 E5.60392
G1 X105.561 Y117.160 E5.61183
G1 X105.220 Y116.950 E5.61974
G1 X104.834 Y116.795 E5.62793
G1 X104.862 Y116.614 E5.63154
G1 X105.162 Y116.590 E5.63750
G1 X106.141 Y116.342 E5.65741
G1 X107.066 Y115.936 E5.67733
G1 X107.911 Y115.384 E5.69724
G1 X108.653 Y114.700 E5.71716
G1 X109.274 Y113.903 E5.73708
G1 X109.754 Y113.016 E5.75699
G1 X110.082 Y112.061 E5.77691
G1 X110.206 Y111.317 E5.79178
G1 E4.79178 F1800.00000
G92 E0
G1 X103.268 Y104.448 F3600.000
G1 E1.00000 F1800.00000
G1 F360
G1 X102.241 Y104.447 E1.02026
G1 X102.242 Y103.466 E1.03961
G1 X102.595 Y103.834 E1.04967
G1 X102.917 Y104.072 E1.05758
G1 X103.310 Y104.270 E1.06626
G1 X103.282 Y104.390 E1.06868
G1 E0.06868 F1800.00000
G92 E0
G1 X102.246 Y116.674 F3600.000
G1 E1.00000 F1800.00000
G1 F360
G1 X103.268 Y116.672 E1.02016
G1 X103.310 Y116.850 E1.02377
G1 X102.917 Y117.048 E1.03245
G1 X102.595 Y117.286 E1.04036
G1 X102.246 Y117.651 E1.05032
G1 X102.246 Y116.734 E1.06842
G1 X101.860 Y116.336 F3600.000
G1 F252
G1 X102.100 Y116.288 E1.07325
G1 X104.166 Y116.285 E1.11399
G1 X105.099 Y116.208 E1.13246
G1 X106.015 Y115.976 E1.15112
G1 X106.881 Y115.596 E1.16977
G1 X107.673 Y115.079 E1.18843
G1 X108.369 Y114.438 E1.20708
G1 X108.950 Y113.692 E1.22574
G1 X109.400 Y112.860 E1.24439
G1 X109.707 Y111.966 E1.26305
G1 X109.862 Y111.033 E1.28170
G1 X109.862 Y110.087 E1.30036
G1 X109.707 Y109.155 E1.31901
G1 X109.400 Y108.260 E1.33767
G1 X108.950 Y107.428 E1.35632
G1 X108.369 Y106.682 E1.37498
G1 X107.672 Y106.041 E1.39366
G1 X106.818 Y105.497 E1.41364
G1 X106.015 Y105.145 E1.43093
G1 X105.099 Y104.912 E1.44958
G1 X104.166 Y104.835 E1.46805
G1 X102.100 Y104.832 E1.50880
G1 X101.855 Y104.783 E1.51373
G1 X101.860 Y100.569 E1.59686
G1 X101.896 Y100.424 E1.59982
G1 X101.931 Y100.373 E1.60103
G1 X102.015 Y100.302 E1.60320
G1 X102.111 Y100.271 E1.60519
G1 X103.001 Y100.268 E1.62275
G1 X103.054 Y100.427 E1.62606
G1 X102.851 Y100.577 E1.63104
G1 X102.618 Y100.820 E1.63768
G1 X102.422 Y101.118 E1.64472
G1 X102.293 Y101.402 E1.65087
G1 X102.209 Y101.726 E1.65748
G1 X102.180 Y102.060 E1.66409
G1 X102.209 Y102.394 E1.67070
G1 X102.293 Y102.718 E1.67731
G1 X102.432 Y103.025 E1.68395
G1 X102.635 Y103.318 E1.69099
G1 X102.851 Y103.543 E1.69714
G1 X103.120 Y103.743 E1.70375
G1 X103.420 Y103.893 E1.71036
G1 X103.740 Y103.992 E1.71697
G1 X104.072 Y104.034 E1.72358
G1 X104.407 Y104.020 E1.73019
G1 X104.735 Y103.949 E1.73680
G1 X105.046 Y103.824 E1.74341
G1 X105.331 Y103.649 E1.75003
G1 X105.583 Y103.427 E1.75664
G1 X105.793 Y103.167 E1.76325
G1 X105.957 Y102.874 E1.76986
G1 X106.068 Y102.558 E1.77647
G1 X106.125 Y102.228 E1.78308
G1 X106.125 Y101.893 E1.78969
G1 X106.068 Y101.562 E1.79630
G1 X105.957 Y101.246 E1.80291
G1 X105.793 Y100.954 E1.80952
G1 X105.583 Y100.693 E1.81613
G1 X105.374 Y100.510 E1.82161
G1 X105.444 Y100.354 E1.82498
G1 X105.827 Y100.401 E1.83259
G1 X106.649 Y100.571 E1.84914
G1 X107.454 Y100.807 E1.86569
G1 X108.237 Y101.108 E1.88224
G1 X108.993 Y101.471 E1.89879
G1 X109.717 Y101.895 E1.91533
G1 X110.404 Y102.376 E1.93188
G1 X111.049 Y102.912 E1.94843
G1 X111.649 Y103.499 E1.96498
G1 X112.199 Y104.132 E1.98153
G1 X112.695 Y104.808 E1.99808
G1 X113.136 Y105.523 E2.01465
G1 X113.649 Y106.510 E2.03658
G1 X113.824 Y106.729 E2.04212
G1 X114.030 Y106.915 E2.04760
G1 X114.264 Y107.065 E2.05308
G1 X114.519 Y107.175 E2.05855
G1 X114.788 Y107.242 E2.06403
G1 X115.056 Y107.264 E2.06932
G1 X133.194 Y107.268 E2.42713
G1 X133.289 Y107.299 E2.42912
G1 X133.366 Y107.355 E2.43099
G1 X133.435 Y107.467 E2.43358
G1 X133.452 Y107.578 E2.43580
G1 X133.452 Y125.542 E2.79018
G1 X133.434 Y125.654 E2.79242
G1 X133.366 Y125.766 E2.79501
G1 X133.282 Y125.827 E2.79704
G1 X133.139 Y125.856 E2.79993
G1 X127.179 Y125.856 E2.91750
G1 X127.049 Y125.830 E2.92011
G1 X126.945 Y125.763 E2.92255
G1 X126.895 Y125.693 E2.92424
G1 X126.860 Y125.551 E2.92712
G1 X126.860 Y119.554 E3.04544
G1 X126.825 Y118.921 E3.05793
G1 X126.718 Y118.291 E3.07055
G1 X126.541 Y117.676 E3.08317
G1 X126.296 Y117.085 E3.09579
G1 X125.986 Y116.525 E3.10841
G1 X125.616 Y116.003 E3.12103
G1 X125.190 Y115.527 E3.13365
G1 X124.713 Y115.100 E3.14627
G1 X124.191 Y114.730 E3.15889
G1 X123.631 Y114.421 E3.17151
G1 X123.040 Y114.176 E3.18412
G1 X122.426 Y113.999 E3.19674
G1 X121.795 Y113.892 E3.20936
G1 X121.163 Y113.856 E3.22186
G1 X115.056 Y113.856 E3.34233
G1 X114.788 Y113.878 E3.34762
G1 X114.519 Y113.945 E3.35310
G1 X114.264 Y114.055 E3.35857
G1 X114.030 Y114.205 E3.36405
G1 X113.824 Y114.391 E3.36953
G1 X113.649 Y114.611 E3.37507
G1 X113.136 Y115.597 E3.39700
G1 X112.695 Y116.312 E3.41357
G1 X112.199 Y116.988 E3.43012
G1 X111.649 Y117.622 E3.44667
G1 X111.049 Y118.208 E3.46322
G1 X110.404 Y118.744 E3.47977
G1 X109.717 Y119.225 E3.49632
G1 X108.993 Y119.649 E3.51287
G1 X108.237 Y120.013 E3.52941
G1 X107.454 Y120.314 E3.54596
G1 X106.649 Y120.550 E3.56251
G1 X105.827 Y120.719 E3.57906
G1 X105.444 Y120.766 E3.58667
G1 X105.374 Y120.611 E3.59004
G1 X105.583 Y120.427 E3.59552
G1 X105.794 Y120.166 E3.60215
G1 X105.965 Y119.852 E3.60920
G1 X106.068 Y119.558 E3.61534
G1 X106.125 Y119.228 E3.62195
G1 X106.125 Y118.893 E3.62856
G1 X106.068 Y118.562 E3.63518
G1 X105.957 Y118.246 E3.64179
G1 X105.793 Y117.954 E3.64840
G1 X105.583 Y117.693 E3.65501
G1 X105.331 Y117.472 E3.66162
G1 X105.046 Y117.296 E3.66823
G1 X104.735 Y117.171 E3.67484
